; HEADER_BLOCK_START
; generated by OrcaSlicer 2.3.1 on 2026-01-19 at 16:35:59
; total layer number: 60
; filament_density: 1.04
; filament_diameter: 1.75
; max_z_height: 12.00
; HEADER_BLOCK_END

; THUMBNAIL_BLOCK_START

;
; THUMBNAIL_BLOCK_END

; external perimeters extrusion width = 0.42mm
; perimeters extrusion width = 0.45mm
; infill extrusion width = 0.45mm
; solid infill extrusion width = 0.42mm
; top infill extrusion width = 0.42mm
; first layer extrusion width = 0.50mm

; EXECUTABLE_BLOCK_START
M73 P0 R11
M106 S0
M106 P2 S0
;TYPE:Custom
M190 S80
M104 S250
G90
M83
G1 Z5 F6000
G1 E-0.2 F800
G1 X110 Y-110 F6000
G1 E2 F800
G1 Y-110 X55 Z0.25 F4800
G1 X-55 E8 F2400
G1 Y-109.6 F2400
G1 X55 E5 F2400
G1 Y-110 X55 Z0.45 F4800
M73 P1 R11
G1 X-55 E8 F2400
G1 Y-109.6 F2400
G1 X55 E5 F2400
G92 E0
G90
G21
M83 ; use relative distances for extrusion
; filament start gcode
;right_extruder_material: ABS
HEAT_CHAMBER TARGET=110 SOAK=10
SET_PRESSURE_ADVANCE ADVANCE=0.04; Override pressure advance value
M106 S0
M106 P2 S0
;LAYER_CHANGE
;Z:0.2
;HEIGHT:0.2
;BEFORE_LAYER_CHANGE
;0.2
G1 E-.8 F2100
M73 P2 R11
;AFTER_LAYER_CHANGE
;0.2
;_SET_FAN_SPEED_CHANGING_LAYER
SET_VELOCITY_LIMIT ACCEL=500
G1 X-1.555 Y-.186 F30000
G1 Z.6
G1 Z.2
G1 E.8 F2100
;TYPE:Inner wall
;WIDTH:0.5
G1 F3000
G1 X-1.555 Y-.219 E.00123
G1 X-1.516 Y-.584 E.01369
G1 X-1.396 Y-1.087 E.01925
G1 X-1.264 Y-1.43 E.01368
G1 X-1.102 Y-1.748 E.01332
G1 X-.907 Y-2.048 E.01332
G1 X-.682 Y-2.326 E.01332
G1 X-.429 Y-2.579 E.01332
G1 X-.151 Y-2.804 E.01332
G1 X.149 Y-2.999 E.01332
G1 X.476 Y-3.165 E.01368
G1 X.963 Y-3.338 E.01925
G1 X1.322 Y-3.414 E.01369
G1 X1.678 Y-3.452 E.01332
G1 X2.035 Y-3.452 E.01331
G1 X2.391 Y-3.414 E.01333
G1 X2.741 Y-3.34 E.01332
G1 X3.081 Y-3.229 E.01332
G1 X3.408 Y-3.084 E.01332
G1 X3.726 Y-2.9 E.01369
G1 X4.136 Y-2.586 E.01924
G1 X4.396 Y-2.326 E.01368
G1 X4.621 Y-2.048 E.01334
G1 X4.819 Y-1.742 E.01358
G1 X4.978 Y-1.429 E.01304
G1 X5.106 Y-1.096 E.01331
G1 X5.201 Y-.741 E.01369
G1 X5.268 Y-.229 E.01924
G1 X5.268 Y.139 E.01369
G1 X5.23 Y.504 E.01369
G1 X5.109 Y1.006 E.01925
G1 X4.978 Y1.349 E.01368
G1 X4.815 Y1.668 E.01332
G1 X4.621 Y1.968 E.01332
G1 X4.396 Y2.246 E.01332
G1 X4.143 Y2.499 E.01332
G1 X3.865 Y2.724 E.01332
G1 X3.565 Y2.918 E.01332
G1 X3.246 Y3.081 E.01332
G1 X2.913 Y3.209 E.01331
G1 X2.558 Y3.304 E.01369
G1 X2.045 Y3.371 E.01924
G1 X1.678 Y3.371 E.01369
G1 X1.322 Y3.334 E.01332
G1 X.973 Y3.26 E.01332
G1 X.633 Y3.149 E.01332
G1 X.306 Y3.004 E.01332
G1 X-.012 Y2.82 E.01368
G1 X-.422 Y2.505 E.01925
G1 X-.682 Y2.246 E.01368
G1 X-.907 Y1.967 E.01335
G1 X-1.105 Y1.661 E.01358
G1 X-1.264 Y1.349 E.01304
G1 X-1.392 Y1.015 E.01331
G1 X-1.487 Y.661 E.01369
G1 X-1.555 Y.148 E.01924
G1 X-1.555 Y-.146 E.01097
G1 X-1.055 Y-.186 F30000
;TYPE:Outer wall
G1 F3000
G1 X-1.055 Y-.193 E.00025
G1 X-1.022 Y-.5 E.01149
G1 X-.917 Y-.938 E.0168
G1 X-.807 Y-1.226 E.01148
G1 X-.668 Y-1.498 E.01137
G1 X-.502 Y-1.754 E.01137
G1 X-.31 Y-1.991 E.01137
G1 X-.094 Y-2.207 E.01137
G1 X.143 Y-2.399 E.01137
G1 X.399 Y-2.565 E.01137
G1 X.674 Y-2.705 E.01148
G1 X1.099 Y-2.856 E.0168
G1 X1.401 Y-2.92 E.01149
G1 X1.704 Y-2.952 E.01137
G1 X2.009 Y-2.952 E.01136
G1 X2.313 Y-2.92 E.01137
G1 X2.611 Y-2.856 E.01137
G1 X2.902 Y-2.762 E.01137
G1 X3.18 Y-2.638 E.01137
G1 X3.448 Y-2.484 E.01149
G1 X3.805 Y-2.209 E.0168
G1 X4.023 Y-1.991 E.01149
G1 X4.216 Y-1.754 E.01138
G1 X4.385 Y-1.492 E.01162
G1 X4.52 Y-1.226 E.01111
G1 X4.63 Y-.941 E.01136
G1 X4.709 Y-.643 E.01149
G1 X4.768 Y-.196 E.0168
G1 X4.768 Y.112 E.01149
G1 X4.736 Y.419 E.01149
G1 X4.631 Y.858 E.0168
G1 X4.52 Y1.146 E.01148
G1 X4.382 Y1.418 E.01137
G1 X4.215 Y1.673 E.01137
G1 X4.023 Y1.911 E.01137
G1 X3.808 Y2.126 E.01137
G1 X3.571 Y2.318 E.01137
G1 X3.315 Y2.485 E.01137
G1 X3.043 Y2.623 E.01137
G1 X2.758 Y2.733 E.01136
G1 X2.46 Y2.812 E.0115
G1 X2.013 Y2.871 E.0168
G1 X1.704 Y2.871 E.01149
G1 X1.401 Y2.839 E.01137
G1 X1.102 Y2.776 E.01137
G1 X.812 Y2.682 E.01137
G1 X.533 Y2.558 E.01137
G1 X.266 Y2.403 E.01148
G1 X-.092 Y2.129 E.0168
G1 X-.31 Y1.911 E.01149
G1 X-.502 Y1.673 E.01138
G1 X-.671 Y1.411 E.01162
G1 X-.807 Y1.146 E.01111
G1 X-.916 Y.861 E.01136
G1 X-.996 Y.563 E.01149
G1 X-1.055 Y.116 E.0168
G1 X-1.055 Y-.146 E.00975
G1 E-.8 F2100
;WIPE_START
G1 F3000
G1 X-1.055 Y-.193
G1 X-1.022 Y-.5
G1 X-.917 Y-.938
G1 X-.807 Y-1.226
G1 X-.668 Y-1.498
G1 X-.502 Y-1.754
G1 X-.329 Y-1.968
;WIPE_END
G1 X-7.054 Y-5.577 Z.6 F30000
G1 X-8.141 Y-6.16 Z.6
G1 Z.2
G1 E.8 F2100
;TYPE:Inner wall
G1 F3000
G1 X-8.235 Y-6.229 E.00433
G1 X-8.547 Y-6.558 E.01689
G1 X-8.857 Y-7.034 E.02116
G1 X-9.064 Y-7.574 E.02153
G1 X-9.153 Y-8.135 E.02116
G1 X-9.141 Y-8.589 E.01689
G1 X-9.023 Y-9.144 E.02116
G1 X-8.787 Y-9.673 E.02153
G1 X-8.448 Y-10.14 E.02153
G1 X-8.018 Y-10.527 E.02153
G1 X-7.517 Y-10.816 E.02153
G1 X-6.977 Y-10.992 E.02116
G1 X-6.527 Y-11.051 E.01689
G1 X-5.97 Y-11.022 E.02079
G1 X-5.529 Y-10.916 E.01689
G1 X-5.01 Y-10.685 E.02116
G1 X-4.55 Y-10.351 E.02116
G1 X-4.238 Y-10.022 E.01689
G1 X-3.929 Y-9.545 E.02116
G1 X-3.722 Y-9.005 E.02153
G1 X-3.631 Y-8.434 E.02153
G1 X-3.661 Y-7.867 E.02116
G1 X-3.767 Y-7.426 E.01689
G1 X-3.998 Y-6.907 E.02116
G1 X-4.338 Y-6.439 E.02153
G1 X-4.767 Y-6.052 E.02153
G1 X-5.259 Y-5.768 E.02116
G1 X-5.687 Y-5.617 E.01689
G1 X-6.248 Y-5.528 E.02116
G1 X-6.815 Y-5.558 E.02116
G1 X-7.256 Y-5.664 E.01689
G1 X-7.775 Y-5.895 E.02116
G1 X-8.109 Y-6.137 E.01534
G1 X-7.847 Y-6.565 F30000
;TYPE:Outer wall
G1 F3000
G1 X-7.904 Y-6.606 E.00262
G1 X-8.153 Y-6.869 E.01347
G1 X-8.409 Y-7.263 E.0175
G1 X-8.578 Y-7.704 E.01762
G1 X-8.652 Y-8.168 E.01749
G1 X-8.642 Y-8.53 E.01347
G1 X-8.544 Y-8.989 E.01749
G1 X-8.352 Y-9.421 E.01762
G1 X-8.074 Y-9.804 E.01762
G1 X-7.723 Y-10.12 E.01761
G1 X-7.313 Y-10.357 E.01762
G1 X-6.866 Y-10.502 E.01749
G1 X-6.508 Y-10.549 E.01347
G1 X-6.042 Y-10.525 E.01737
G1 X-5.69 Y-10.44 E.01347
G1 X-5.261 Y-10.249 E.01749
G1 X-4.881 Y-9.973 E.01749
G1 X-4.632 Y-9.711 E.01347
G1 X-4.377 Y-9.317 E.01749
G1 X-4.207 Y-8.875 E.01762
G1 X-4.133 Y-8.408 E.01762
G1 X-4.158 Y-7.939 E.01749
G1 X-4.242 Y-7.587 E.01347
G1 X-4.433 Y-7.158 E.01749
G1 X-4.711 Y-6.776 E.01762
G1 X-5.063 Y-6.459 E.01761
G1 X-5.47 Y-6.224 E.01749
G1 X-5.81 Y-6.104 E.01347
G1 X-6.274 Y-6.03 E.01749
G1 X-6.743 Y-6.055 E.0175
G1 X-7.095 Y-6.139 E.01347
G1 X-7.524 Y-6.33 E.01749
G1 X-7.815 Y-6.541 E.01339
G1 E-.8 F2100
;WIPE_START
G1 F3000
G1 X-7.904 Y-6.606
G1 X-8.153 Y-6.869
G1 X-8.409 Y-7.263
G1 X-8.578 Y-7.704
G1 X-8.652 Y-8.168
G1 X-8.649 Y-8.284
;WIPE_END
G1 X-2.685 Y-3.52 Z.6 F30000
G1 X12.784 Y8.838 Z.6
G1 Z.2
G1 E.8 F2100
;TYPE:Inner wall
G1 F3000
G1 X12.736 Y9.064 E.00862
G1 X12.501 Y9.592 E.02153
G1 X12.161 Y10.06 E.02153
G1 X11.732 Y10.447 E.02153
G1 X11.231 Y10.736 E.02153
G1 X10.691 Y10.911 E.02116
G1 X10.241 Y10.97 E.01689
G1 X9.684 Y10.941 E.02079
G1 X9.243 Y10.835 E.01689
G1 X8.724 Y10.604 E.02116
G1 X8.264 Y10.27 E.02116
G1 X7.952 Y9.941 E.01689
G1 X7.642 Y9.465 E.02116
G1 X7.435 Y8.925 E.02153
G1 X7.345 Y8.354 E.02153
G1 X7.375 Y7.777 E.02153
G1 X7.522 Y7.228 E.02116
G1 X7.717 Y6.818 E.01689
G1 X8.051 Y6.359 E.02116
G1 X8.481 Y5.972 E.02153
G1 X8.982 Y5.683 E.02153
G1 X9.522 Y5.507 E.02116
G1 X9.971 Y5.448 E.01689
G1 X10.539 Y5.478 E.02116
G1 X11.088 Y5.625 E.02116
G1 X11.497 Y5.82 E.01689
G1 X11.949 Y6.148 E.02079
G1 X12.261 Y6.477 E.01689
G1 X12.57 Y6.954 E.02116
G1 X12.777 Y7.494 E.02153
G1 X12.866 Y8.055 E.02116
G1 X12.854 Y8.508 E.01689
G1 X12.793 Y8.798 E.01105
G1 X12.295 Y8.734 F30000
;TYPE:Outer wall
G1 F3000
G1 X12.258 Y8.909 E.00667
G1 X12.066 Y9.341 E.01762
G1 X11.788 Y9.723 E.01762
G1 X11.436 Y10.04 E.01761
G1 X11.027 Y10.276 E.01762
G1 X10.58 Y10.421 E.01749
G1 X10.221 Y10.469 E.01347
G1 X9.756 Y10.444 E.01737
G1 X9.404 Y10.36 E.01347
G1 X8.975 Y10.169 E.01749
G1 X8.595 Y9.893 E.01749
G1 X8.346 Y9.63 E.01347
G1 X8.09 Y9.236 E.0175
G1 X7.921 Y8.795 E.01762
G1 X7.847 Y8.328 E.01762
G1 X7.872 Y7.855 E.01762
G1 X7.993 Y7.402 E.01749
G1 X8.149 Y7.075 E.01347
G1 X8.425 Y6.695 E.01749
G1 X8.776 Y6.379 E.01761
G1 X9.186 Y6.142 E.01762
G1 X9.633 Y5.997 E.01749
G1 X9.991 Y5.95 E.01347
G1 X10.46 Y5.975 E.01749
G1 X10.914 Y6.096 E.0175
G1 X11.24 Y6.252 E.01347
G1 X11.618 Y6.526 E.01737
G1 X11.867 Y6.788 E.01347
G1 X12.122 Y7.182 E.0175
G1 X12.292 Y7.624 E.01762
G1 X12.365 Y8.088 E.01749
G1 X12.356 Y8.449 E.01347
G1 X12.304 Y8.694 E.00934
G1 E-.8 F2100
;WIPE_START
G1 F3000
G1 X12.258 Y8.909
G1 X12.066 Y9.341
G1 X11.788 Y9.723
G1 X11.436 Y10.04
G1 X11.123 Y10.221
;WIPE_END
G1 X11.378 Y2.593 Z.6 F30000
G1 X11.888 Y-12.684 Z.6
G1 Z.2
G1 E.8 F2100
;TYPE:Inner wall
G1 F3000
G1 X12.393 Y-12.563 E.01935
G1 X12.596 Y-12.488 E.00804
G1 X13.045 Y-12.259 E.0188
G1 X13.442 Y-11.971 E.01825
G1 X13.798 Y-11.614 E.0188
G1 X13.932 Y-11.445 E.00805
G1 X14.197 Y-11.014 E.01882
G1 X14.38 Y-10.577 E.01766
G1 X14.497 Y-10.086 E.01879
G1 X14.538 Y-9.565 E.01946
G1 X14.538 Y9.499 E.71009
G1 X14.529 Y9.747 E.00924
G1 X14.447 Y10.261 E.01935
G1 X14.389 Y10.468 E.00803
G1 X14.19 Y10.948 E.01935
G1 X14.085 Y11.136 E.00804
G1 X13.788 Y11.545 E.0188
G1 X13.431 Y11.901 E.0188
G1 X13.048 Y12.179 E.01764
G1 X12.833 Y12.299 E.00915
G1 X12.379 Y12.486 E.01827
G1 X11.903 Y12.6 E.01826
G1 X11.382 Y12.641 E.01946
G1 X-7.683 Y12.641 E.71009
G1 X-7.931 Y12.632 E.00924
M73 P3 R11
G1 X-8.429 Y12.553 E.0188
G1 X-8.909 Y12.397 E.0188
G1 X-9.105 Y12.306 E.00803
G1 X-9.548 Y12.035 E.01935
G1 X-9.717 Y11.901 E.00804
G1 X-10.085 Y11.534 E.01935
G1 X-10.219 Y11.364 E.00805
G1 X-10.483 Y10.934 E.01883
G1 X-10.666 Y10.496 E.01766
G1 X-10.784 Y10.006 E.01879
G1 X-10.825 Y9.485 E.01946
G1 X-10.825 Y-9.565 E.70954
G1 X-10.784 Y-10.086 E.01946
G1 X-10.666 Y-10.577 E.01879
G1 X-10.591 Y-10.779 E.00804
G1 X-10.356 Y-11.242 E.01935
G1 X-10.236 Y-11.421 E.00804
G1 X-9.899 Y-11.815 E.01928
G1 X-9.729 Y-11.971 E.0086
G1 X-9.332 Y-12.259 E.01827
G1 X-8.883 Y-12.488 E.01875
G1 X-8.666 Y-12.567 E.0086
G1 X-8.189 Y-12.681 E.01827
G1 X-7.668 Y-12.722 E.01947
G1 X-6.23 Y-12.722 E.05359
G1 X11.674 Y-12.71 E.66682
G1 X11.848 Y-12.689 E.00655
G1 X11.976 Y-13.177 F30000
;TYPE:Outer wall
G1 F3000
G1 X12.539 Y-13.042 E.02154
G1 X12.796 Y-12.947 E.01023
G1 X13.307 Y-12.687 E.02136
G1 X13.767 Y-12.353 E.02118
G1 X14.173 Y-11.947 E.02136
G1 X14.343 Y-11.731 E.01024
G1 X14.638 Y-11.251 E.02099
G1 X14.859 Y-10.722 E.02136
G1 X14.993 Y-10.164 E.02136
G1 X15.038 Y-9.585 E.02165
G1 X15.038 Y9.509 E.71118
G1 X15.027 Y9.797 E.01071
G1 X14.937 Y10.368 E.02154
G1 X14.862 Y10.632 E.01023
G1 X14.641 Y11.167 E.02154
G1 X14.506 Y11.406 E.01023
G1 X14.169 Y11.87 E.02136
G1 X13.764 Y12.276 E.02136
G1 X13.544 Y12.449 E.01042
G1 X13.05 Y12.75 E.02155
G1 X12.534 Y12.963 E.0208
G1 X11.981 Y13.096 E.02118
G1 X11.401 Y13.141 E.02165
G1 X-7.693 Y13.141 E.71118
G1 X-7.98 Y13.13 E.01071
G1 X-8.546 Y13.04 E.02136
G1 X-9.092 Y12.863 E.02136
G1 X-9.341 Y12.748 E.01023
G1 X-9.834 Y12.446 E.02154
G1 X-10.05 Y12.276 E.01023
G1 X-10.459 Y11.867 E.02154
G1 X-10.629 Y11.651 E.01024
G1 X-10.924 Y11.171 E.02099
G1 X-11.145 Y10.642 E.02136
G1 X-11.279 Y10.084 E.02136
G1 X-11.325 Y9.504 E.02165
G1 X-11.325 Y-9.585 E.711
G1 X-11.279 Y-10.164 E.02165
G1 X-11.145 Y-10.722 E.02136
G1 X-11.05 Y-10.98 E.01023
G1 X-10.788 Y-11.495 E.02154
G1 X-10.635 Y-11.723 E.01023
G1 X-10.26 Y-12.163 E.02152
G1 X-10.046 Y-12.359 E.01081
G1 X-9.594 Y-12.687 E.0208
G1 X-9.083 Y-12.947 E.02134
G1 X-8.811 Y-13.046 E.01081
G1 X-8.267 Y-13.176 E.0208
G1 X-7.688 Y-13.222 E.02166
G1 X-6.229 Y-13.222 E.05433
G1 X11.703 Y-13.21 E.66791
G1 X11.936 Y-13.182 E.00874
G1 E-.8 F2100
;WIPE_START
G1 F3000
G1 X12.539 Y-13.042
G1 X12.796 Y-12.947
G1 X13.307 Y-12.687
G1 X13.739 Y-12.373
;WIPE_END
G1 X14.145 Y-10.781 Z.6 F30000
G1 Z.2
G1 E.8 F2100
;TYPE:Bottom surface
;WIDTH:0.50164
G1 F4800
G1 X13.214 Y-11.713 E.04925
G1 X12.866 Y-11.966 E.01609
G1 X12.458 Y-12.174 E.0171
G1 X12.294 Y-12.234 E.00655
G1 X11.965 Y-12.313 E.01264
G1 X14.13 Y-10.148 E.11446
G1 X14.158 Y-10.032 E.00446
G1 X14.196 Y-9.434 E.02241
G1 X11.262 Y-12.367 E.15506
G1 X10.613 Y-12.368 E.02427
G1 X14.196 Y-8.785 E.18938
G1 X14.196 Y-8.136 E.02425
G1 X9.964 Y-12.368 E.22369
G1 X9.315 Y-12.368 E.02427
G1 X14.196 Y-7.488 E.25801
G1 X14.196 Y-6.839 E.02425
G1 X8.666 Y-12.369 E.29233
G1 X8.016 Y-12.369 E.02427
G1 X14.196 Y-6.19 E.32664
G1 X14.196 Y-5.541 E.02425
G1 X7.367 Y-12.37 E.36096
G1 X6.718 Y-12.37 E.02427
G1 X14.196 Y-4.893 E.39528
G1 X14.196 Y-4.244 E.02425
G1 X6.069 Y-12.371 E.4296
G1 X5.42 Y-12.371 E.02427
G1 X14.196 Y-3.595 E.46391
G1 X14.196 Y-2.947 E.02425
M73 P4 R11
G1 X4.771 Y-12.371 E.49823
G1 X4.121 Y-12.372 E.02427
G1 X14.196 Y-2.298 E.53255
G1 X14.196 Y-1.649 E.02425
G1 X3.472 Y-12.372 E.56686
G1 X2.823 Y-12.373 E.02427
G1 X14.196 Y-1 E.60118
G1 X14.196 Y-.352 E.02425
G1 X2.174 Y-12.373 E.6355
G1 X1.525 Y-12.374 E.02427
G1 X14.196 Y.297 E.66981
G1 X14.196 Y.946 E.02425
G1 X.876 Y-12.374 E.70413
G1 X.226 Y-12.375 E.02427
G1 X14.196 Y1.595 E.73845
G1 X14.196 Y2.243 E.02425
G1 X-.423 Y-12.375 E.77276
G1 X-1.072 Y-12.375 E.02427
G1 X14.196 Y2.892 E.80708
G1 X14.196 Y3.541 E.02425
G1 X-1.721 Y-12.376 E.8414
G1 X-2.37 Y-12.376 E.02427
G1 X14.196 Y4.189 E.87571
G1 X14.196 Y4.838 E.02425
M73 P4 R10
G1 X-3.019 Y-12.377 E.91003
G1 X-3.668 Y-12.377 E.02427
G1 X14.196 Y5.487 E.94435
G1 X14.196 Y6.136 E.02425
G1 X-4.318 Y-12.378 E.97866
G1 X-4.967 Y-12.378 E.02427
G1 X14.196 Y6.784 E1.01298
G1 X14.196 Y7.433 E.02425
M73 P5 R10
G1 X5.352 Y-1.41 E.46748
G1 X5.291 Y-1.569 E.00636
G1 X5.116 Y-1.913 E.01442
G1 X4.899 Y-2.249 E.01497
G1 X4.651 Y-2.556 E.01475
G1 X4.362 Y-2.844 E.01524
G1 X3.917 Y-3.186 E.02099
G1 X3.564 Y-3.39 E.01525
G1 X3.219 Y-3.543 E.01409
G1 X-5.616 Y-12.378 E.46706
G1 X-6.265 Y-12.379 E.02426
G1 X2.35 Y-3.763 E.45544
G1 X2.053 Y-3.795 E.01117
G1 X1.67 Y-3.794 E.01431
G1 X-3.343 Y-8.808 E.26504
G1 X-3.287 Y-8.452 E.01347
G1 X-3.304 Y-8.121 E.01242
G1 X1.099 Y-3.717 E.23277
G1 X.87 Y-3.669 E.00876
G1 X.596 Y-3.572 E.01086
G1 X-3.384 Y-7.552 E.21039
G1 X-3.441 Y-7.315 E.00908
G1 X-3.55 Y-7.069 E.01007
G1 X.14 Y-3.379 E.19508
G1 X-.267 Y-3.137 E.0177
G1 X-3.769 Y-6.639 E.18511
G1 X-4.042 Y-6.263 E.01736
G1 X-.633 Y-2.855 E.18019
G1 X-.958 Y-2.53 E.01715
G1 X-4.373 Y-5.946 E.18056
G1 X-4.565 Y-5.774 E.00963
G1 X-4.745 Y-5.669 E.0078
G1 X-1.24 Y-2.164 E.18529
G1 X-1.482 Y-1.757 E.0177
G1 X-5.163 Y-5.439 E.19462
G1 X-5.649 Y-5.276 E.01916
G1 X-1.679 Y-1.305 E.20989
G1 X-1.724 Y-1.189 E.00467
G1 X-1.818 Y-.796 E.01511
G1 X-6.209 Y-5.187 E.23214
G1 X-6.896 Y-5.225 E.02569
G1 X-1.692 Y-.021 E.27509
G1 E-.8 F2100
;WIPE_START
G1 F4800
G1 X-3.106 Y-1.435
;WIPE_END
G1 X-5.026 Y-8.822 Z.6 F30000
G1 X-5.611 Y-11.076 Z.6
G1 Z.2
G1 E.8 F2100
G1 F4800
G1 X-6.914 Y-12.379 E.06885
G1 X-7.563 Y-12.379 E.02425
G1 X-6.574 Y-11.39 E.05226
G1 X-7.053 Y-11.327 E.01806
G1 X-7.134 Y-11.301 E.00317
G1 X-8.166 Y-12.334 E.05459
G1 X-8.679 Y-12.197 E.01982
G1 X-7.623 Y-11.142 E.05579
G1 X-8.04 Y-10.91 E.01783
G1 X-9.115 Y-11.985 E.05682
G1 X-9.496 Y-11.717 E.0174
G1 X-8.412 Y-10.633 E.05728
G1 X-8.704 Y-10.371 E.01467
G1 X-8.744 Y-10.316 E.00253
G1 X-9.814 Y-11.387 E.0566
G1 X-9.962 Y-11.214 E.0085
G1 X-10.088 Y-11.012 E.0089
G1 X-9.017 Y-9.94 E.05664
G1 X-9.086 Y-9.845 E.00442
G1 X-9.235 Y-9.51 E.0137
G1 X-10.301 Y-10.576 E.05634
G1 X-10.437 Y-10.063 E.01983
G1 X-9.398 Y-9.025 E.05488
G1 X-9.483 Y-8.629 E.01513
G1 X-9.487 Y-8.465 E.00615
G1 X-10.482 Y-9.46 E.05259
G1 X-10.482 Y-8.811 E.02425
G1 X-9.189 Y-7.518 E.06833
G1 E-.8 F2100
;WIPE_START
G1 F4800
G1 X-10.482 Y-8.811
G1 X-10.482 Y-8.983
;WIPE_END
G1 X-10.688 Y-8.368 Z.6 F30000
G1 Z.2
G1 E.8 F2100
G1 F4800
G1 X-1.618 Y.702 E.47943
G1 E-.8 F2100
;WIPE_START
G1 F4800
G1 X-3.032 Y-.713
;WIPE_END
G1 X4.6 Y-.776 Z.6 F30000
G1 X5.332 Y-.782 Z.6
M73 P6 R10
G1 Z.2
G1 E.8 F2100
G1 F4800
G1 X14.196 Y8.082 E.46856
G1 X14.196 Y8.731 E.02425
G1 X13.156 Y7.691 E.05496
G1 X13.21 Y8.032 E.01293
G1 X13.201 Y8.384 E.01316
G1 X14.196 Y9.379 E.05259
G1 X14.187 Y9.714 E.01251
G1 X14.145 Y9.978 E.00998
G1 X13.112 Y8.945 E.0546
G1 X13.064 Y9.171 E.00863
G1 X12.949 Y9.43 E.01061
G1 X14.009 Y10.49 E.05604
G1 X13.881 Y10.798 E.01247
G1 X13.805 Y10.935 E.00584
