; HEADER_BLOCK_START
; generated by OrcaSlicer 2.3.1 on 2026-03-10 at 16:04:41
; total layer number: 99
; filament_density: 1.27
; filament_diameter: 1.75
; max_z_height: 19.80
; HEADER_BLOCK_END

; THUMBNAIL_BLOCK_START

;
; THUMBNAIL_BLOCK_END

; external perimeters extrusion width = 0.42mm
; perimeters extrusion width = 0.45mm
; infill extrusion width = 0.45mm
; solid infill extrusion width = 0.42mm
; top infill extrusion width = 0.42mm
; support material extrusion width = 0.42mm
; first layer extrusion width = 0.50mm

; EXECUTABLE_BLOCK_START
M73 P0 R14
M106 S0
M106 P2 S0
;TYPE:Custom
M190 S80
M104 S245
G90
M83
G1 Z5 F6000
G1 E-0.2 F800
G1 X110 Y-110 F6000
G1 E2 F800
G1 Y-110 X55 Z0.25 F4800
G1 X-55 E8 F2400
G1 Y-109.6 F2400
G1 X55 E5 F2400
G1 Y-110 X55 Z0.45 F4800
G1 X-55 E8 F2400
G1 Y-109.6 F2400
M73 P1 R14
G1 X55 E5 F2400
G92 E0
G90
G21
M83 ; use relative distances for extrusion
; Filament gcode
M106 S0
M106 P2 S0
;LAYER_CHANGE
;Z:0.2
;HEIGHT:0.2
;BEFORE_LAYER_CHANGE
;0.2
G1 E-.8 F2100
;AFTER_LAYER_CHANGE
;0.2
;_SET_FAN_SPEED_CHANGING_LAYER
SET_VELOCITY_LIMIT ACCEL=500
G1 X-5.393 Y.868 F30000
G1 Z.6
G1 Z.2
G1 E.8 F2100
;TYPE:Inner wall
;WIDTH:0.5
G1 F3000
G1 X-8.696 Y.868 E.12303
G1 X-8.696 Y-5.918 E.25275
G1 X8.696 Y-5.918 E.64778
G1 X8.696 Y.868 E.25275
G1 X5.393 Y.868 E.12303
G1 X5.393 Y4.385 E.131
G1 X8.493 Y4.385 E.11547
G1 X8.493 Y5.251 E.03227
G1 X7.161 Y5.918 E.05546
G1 X-7.163 Y5.917 E.53352
G1 X-8.493 Y5.251 E.05541
G1 X-8.493 Y4.385 E.03227
G1 X-5.393 Y4.385 E.11547
G1 X-5.393 Y.908 E.12951
G1 X-5.893 Y1.368 F30000
;TYPE:Outer wall
G1 F3000
G1 X-9.196 Y1.368 E.12303
G1 X-9.196 Y-6.418 E.28999
G1 X9.196 Y-6.418 E.68503
G1 X9.196 Y1.368 E.28999
M73 P2 R14
G1 X5.893 Y1.368 E.12303
G1 X5.893 Y3.885 E.09376
G1 X8.993 Y3.885 E.11548
G1 X8.993 Y5.56 E.06239
G1 X7.28 Y6.418 E.07135
G1 X-7.281 Y6.417 E.54232
G1 X-8.993 Y5.56 E.0713
G1 X-8.993 Y3.885 E.0624
G1 X-5.893 Y3.885 E.11548
G1 X-5.893 Y1.408 E.09227
G1 E-.8 F2100
;WIPE_START
G1 F3000
G1 X-7.893 Y1.383
;WIPE_END
G1 X-8.133 Y4.613 Z.6 F30000
G1 Z.2
G1 E.8 F2100
;TYPE:Gap infill
;WIDTH:0.258584
G1 F3000
G1 X-8.164 Y4.879 E.0047
;WIDTH:0.239277
G1 X-8.195 Y5.145 E.00428
G1 E-.8 F2100
;WIPE_START
G1 F3000
G1 X-8.164 Y4.879
;WIPE_END
G1 X-.533 Y4.755 Z.6 F30000
G1 X8.133 Y4.613 Z.6
G1 Z.2
G1 E.8 F2100
;WIDTH:0.258772
G1 F3000
G1 X8.164 Y4.879 E.0047
;WIDTH:0.239482
G1 X8.195 Y5.145 E.00428
G1 E-.8 F2100
;WIPE_START
G1 F3000
G1 X8.164 Y4.879
;WIPE_END
G1 X7.77 Y-2.743 Z.6 F30000
G1 X7.613 Y-5.781 Z.6
G1 Z.2
G1 E.8 F2100
;TYPE:Bottom surface
;WIDTH:0.5101
G1 F4800
G1 X8.353 Y-5.041 E.03982
G1 X8.353 Y-4.381 E.02515
G1 X7.158 Y-5.575 E.06432
G1 X6.498 Y-5.575 E.02515
G1 X8.353 Y-3.72 E.09989
G1 X8.353 Y-3.059 E.02515
G1 X5.837 Y-5.575 E.13546
G1 X5.176 Y-5.575 E.02515
G1 X8.353 Y-2.399 E.17103
G1 X8.353 Y-1.738 E.02515
G1 X4.516 Y-5.575 E.2066
G1 X3.855 Y-5.575 E.02515
G1 X8.353 Y-1.077 E.24217
G1 X8.353 Y-.416 E.02515
G1 X3.194 Y-5.575 E.27774
G1 X2.534 Y-5.575 E.02515
G1 X8.353 Y.244 E.31331
G1 X8.353 Y.525 E.01068
G1 X7.973 Y.525 E.01447
G1 X1.873 Y-5.575 E.32843
G1 X1.212 Y-5.575 E.02515
G1 X7.312 Y.525 E.32843
G1 X6.652 Y.525 E.02515
G1 X.552 Y-5.575 E.32843
G1 X-.109 Y-5.575 E.02515
G1 X5.991 Y.525 E.32843
G1 X5.33 Y.525 E.02515
G1 X-.77 Y-5.575 E.32843
G1 X-1.431 Y-5.575 E.02515
G1 X5.05 Y.905 E.34891
G1 X5.05 Y1.566 E.02515
G1 X-2.091 Y-5.575 E.38448
G1 X-2.752 Y-5.575 E.02515
G1 X5.05 Y2.227 E.42005
G1 X5.05 Y2.887 E.02515
G1 X-3.413 Y-5.575 E.45562
G1 X-4.073 Y-5.575 E.02515
G1 X5.256 Y3.754 E.50226
G1 E-.8 F2100
;WIPE_START
G1 F4800
G1 X3.842 Y2.34
;WIPE_END
G1 X7.345 Y4.522 Z.6 F30000
G1 Z.2
G1 E.8 F2100
G1 F4800
G1 X7.687 Y4.864 E.01839
G1 X7.732 Y5.249 E.01477
G1 X7.518 Y5.356 E.00908
G1 X6.89 Y4.728 E.03381
G1 X6.23 Y4.728 E.02515
G1 X7.077 Y5.575 E.04562
G1 X6.416 Y5.575 E.02515
G1 X5.569 Y4.728 E.04562
G1 X5.05 Y4.728 E.01975
M73 P3 R14
G1 X5.05 Y4.209 E.01975
G1 X-4.734 Y-5.575 E.52676
G1 X-5.395 Y-5.575 E.02515
G1 X5.756 Y5.575 E.60031
G1 X5.095 Y5.575 E.02515
G1 X-6.055 Y-5.575 E.60031
G1 X-6.716 Y-5.575 E.02515
G1 X4.434 Y5.575 E.60031
G1 X3.773 Y5.575 E.02515
G1 X-7.377 Y-5.575 E.60031
G1 X-8.037 Y-5.575 E.02515
G1 X3.113 Y5.575 E.60031
G1 X2.452 Y5.575 E.02515
G1 X-8.353 Y-5.23 E.58173
G1 X-8.353 Y-4.57 E.02515
G1 X1.791 Y5.575 E.54616
G1 X1.131 Y5.575 E.02515
G1 X-8.353 Y-3.909 E.51059
G1 X-8.353 Y-3.248 E.02515
G1 X.47 Y5.575 E.47501
G1 X-.191 Y5.575 E.02515
G1 X-8.353 Y-2.588 E.43944
G1 X-8.353 Y-1.927 E.02515
G1 X-5.901 Y.525 E.132
G1 X-6.562 Y.525 E.02515
G1 X-8.353 Y-1.266 E.09643
G1 X-8.353 Y-.605 E.02515
G1 X-7.223 Y.525 E.06086
G1 X-7.883 Y.525 E.02515
G1 X-8.559 Y-.15 E.03636
G1 E-.8 F2100
;WIPE_START
G1 F4800
G1 X-7.883 Y.525
G1 X-7.223 Y.525
G1 X-7.494 Y.253
;WIPE_END
G1 X-5.256 Y1.17 Z.6 F30000
G1 Z.2
G1 E.8 F2100
G1 F4800
G1 X-.852 Y5.575 E.23712
G1 X-1.512 Y5.575 E.02515
G1 X-5.05 Y2.037 E.19047
G1 X-5.05 Y2.698 E.02515
G1 X-2.173 Y5.575 E.1549
G1 X-2.834 Y5.575 E.02515
G1 X-5.05 Y3.358 E.11933
G1 X-5.05 Y4.019 E.02515
G1 X-3.494 Y5.575 E.08376
G1 X-4.155 Y5.575 E.02515
G1 X-5.05 Y4.68 E.04818
G1 X-5.05 Y4.728 E.00183
G1 X-5.663 Y4.728 E.02332
G1 X-4.816 Y5.575 E.0456
G1 X-5.477 Y5.575 E.02515
G1 X-6.323 Y4.728 E.0456
G1 X-6.984 Y4.728 E.02515
G1 X-6.137 Y5.575 E.0456
G1 X-6.798 Y5.575 E.02515
G1 X-7.851 Y4.522 E.05667
;LAYER_CHANGE
;Z:0.4
;HEIGHT:0.2
;BEFORE_LAYER_CHANGE
;0.4
G1 E-.8 F2100
;WIPE_START
G1 F4800
G1 X-6.798 Y5.575
G1 X-6.287 Y5.575
;WIPE_END
;AFTER_LAYER_CHANGE
;0.4
;_SET_FAN_SPEED_CHANGING_LAYER
SET_VELOCITY_LIMIT ACCEL=10000
M104 S240 ; set nozzle temperature
M140 S80 ; set bed temperature
G17
G3 Z.8 I1.205 J.173 P1  F30000
G1 X-5.648 Y1.123 Z.8
G1 Z.4
G1 E.8 F2100
SET_VELOCITY_LIMIT ACCEL=5000
;TYPE:Inner wall
;WIDTH:0.45
G1 F5226
G1 X-8.951 Y1.123 E.10957
G1 X-8.951 Y-6.173 E.24202
G1 X8.951 Y-6.173 E.59384
G1 X8.951 Y1.123 E.24202
G1 X5.648 Y1.123 E.10957
G1 X5.648 Y4.128 E.0997
G1 X8.748 Y4.136 E.10285
G1 X8.748 Y5.409 E.04222
G1 X7.222 Y6.173 E.05661
G1 X-7.223 Y6.172 E.47915
G1 X-8.748 Y5.409 E.05657
G1 X-8.748 Y4.136 E.04222
G1 X-5.648 Y4.128 E.10285
G1 X-5.648 Y1.163 E.09837
SET_VELOCITY_LIMIT ACCEL=10000
G1 X-6.083 Y1.558 F30000
SET_VELOCITY_LIMIT ACCEL=5000
;TYPE:Outer wall
;WIDTH:0.42
G1 F4800
G1 X-9.386 Y1.558 E.10149
G1 X-9.386 Y-6.608 E.25091
G1 X9.386 Y-6.608 E.57681
G1 X9.386 Y1.558 E.25091
G1 X6.083 Y1.558 E.10149
G1 X6.083 Y3.694 E.06565
G1 X9.184 Y3.702 E.09527
G1 X9.183 Y5.677 E.0607
G1 X7.324 Y6.608 E.06385
G1 X-7.326 Y6.607 E.45016
G1 X-9.182 Y5.677 E.06381
G1 X-9.184 Y3.702 E.0607
M73 P4 R14
G1 X-6.083 Y3.694 E.09527
G1 X-6.083 Y1.598 E.06442
SET_VELOCITY_LIMIT ACCEL=10000
G1 E-.8 F2100
;WIPE_START
G1 F4800
G1 X-8.083 Y1.573
;WIPE_END
G1 X-5.765 Y4.521 Z.8 F30000
G1 Z.4
G1 E.8 F2100
SET_VELOCITY_LIMIT ACCEL=7000
;TYPE:Internal solid infill
;WIDTH:0.419999
G1 F5226
G1 X-8.356 Y4.527 E.07962
G1 X-8.356 Y5.167 E.01965
G1 X-7.13 Y5.78 E.04211
G1 X-7.024 Y5.78 E.00325
G1 X-5.793 Y4.549 E.05351
SET_VELOCITY_LIMIT ACCEL=10000
G1 X-6.698 Y4.908 F30000
SET_VELOCITY_LIMIT ACCEL=7000
;WIDTH:0.436869
G1 F5226
G1 X-7.97 Y4.912 E.04085
G1 X-7.136 Y5.346 E.03021
G1 X-6.726 Y4.937 E.0186
SET_VELOCITY_LIMIT ACCEL=10000
G1 E-.8 F2100
;WIPE_START
G1 F15000
G1 X-7.136 Y5.346
G1 X-7.97 Y4.912
G1 X-7.491 Y4.91
;WIPE_END
G1 X-8.275 Y-2.682 Z.8 F30000
G1 X-8.607 Y-5.887 Z.8
G1 Z.4
G1 E.8 F2100
SET_VELOCITY_LIMIT ACCEL=7000
;WIDTH:0.38292
G1 F5226
G1 X-8.67 Y-5.85 E.00204
G1 X-8.605 Y-5.816 E.00204
SET_VELOCITY_LIMIT ACCEL=10000
G1 X6.77 Y1.096 F30000
SET_VELOCITY_LIMIT ACCEL=7000
;WIDTH:0.421675
G1 F5226
G1 X8.755 Y-.888 E.08663
G1 X8.755 Y-1.424 E.01653
G1 X6.234 Y1.096 E.11001
SET_VELOCITY_LIMIT ACCEL=10000
G1 X5.622 Y3.852 F30000
SET_VELOCITY_LIMIT ACCEL=7000
G1 F5226
G1 X3.497 Y5.977 E.09274
G1 X2.961 Y5.977 E.01653
G1 X5.452 Y3.486 E.10872
G1 X5.452 Y2.95 E.01653
G1 X2.425 Y5.977 E.1321
G1 X1.89 Y5.977 E.01653
G1 X5.452 Y2.415 E.15547
G1 X5.452 Y1.879 E.01653
G1 X1.354 Y5.977 E.17885
G1 X.819 Y5.977 E.01653
G1 X5.452 Y1.343 E.20223
G1 X5.452 Y.927 E.01286
G1 X5.869 Y.927 E.01286
G1 X8.755 Y-1.96 E.12598
G1 X8.755 Y-2.495 E.01653
G1 X.283 Y5.977 E.36978
G1 X.192 Y5.977 E.00281
G1 X.174 Y5.959 E.00076
G1 X-.235 Y5.959 E.01264
G1 X8.755 Y-3.031 E.3924
G1 X8.755 Y-3.567 E.01653
G1 X-.771 Y5.959 E.41578
G1 X-1.306 Y5.959 E.01653
G1 X8.755 Y-4.102 E.43915
G1 X8.755 Y-4.638 E.01653
G1 X-1.842 Y5.959 E.46253
G1 X-2.378 Y5.959 E.01653
G1 X8.755 Y-5.174 E.48591
G1 X8.755 Y-5.709 E.01653
G1 X-2.913 Y5.959 E.50929
G1 X-3.449 Y5.959 E.01653
G1 X8.487 Y-5.977 E.52098
G1 X7.952 Y-5.977 E.01653
G1 X-3.984 Y5.959 E.52098
G1 X-4.52 Y5.959 E.01653
G1 X7.416 Y-5.977 E.52098
G1 X6.88 Y-5.977 E.01653
G1 X-5.056 Y5.959 E.52098
G1 X-5.591 Y5.959 E.01653
G1 X6.345 Y-5.977 E.52098
G1 X5.809 Y-5.977 E.01653
G1 X-6.127 Y5.959 E.52098
G1 X-6.663 Y5.959 E.01653
G1 X5.273 Y-5.977 E.52098
G1 X4.738 Y-5.977 E.01653
G1 X-5.434 Y4.195 E.44399
G1 X-5.434 Y3.659 E.01653
G1 X4.202 Y-5.977 E.42061
G1 X3.666 Y-5.977 E.01653
G1 X-5.434 Y3.124 E.39723
G1 X-5.434 Y2.588 E.01653
G1 X3.131 Y-5.977 E.37385
G1 X2.595 Y-5.977 E.01653
G1 X-5.434 Y2.052 E.35047
G1 X-5.434 Y1.517 E.01653
G1 X2.06 Y-5.977 E.32709
G1 X1.524 Y-5.977 E.01653
G1 X-5.452 Y.999 E.30448
G1 X-5.452 Y.927 E.00222
M73 P4 R13
G1 X-5.916 Y.927 E.01431
G1 X.988 Y-5.977 E.30134
G1 X.453 Y-5.977 E.01653
G1 X-6.451 Y.927 E.30134
G1 X-6.987 Y.927 E.01653
G1 X-.083 Y-5.977 E.30134
G1 X-.619 Y-5.977 E.01653
G1 X-7.522 Y.927 E.30134
G1 X-8.058 Y.927 E.01653
G1 X-1.154 Y-5.977 E.30134
G1 X-1.69 Y-5.977 E.01653
G1 X-8.594 Y.927 E.30134
G1 X-8.755 Y.927 E.00497
G1 X-8.755 Y.552 E.01156
G1 X-2.226 Y-5.977 E.28499
G1 X-2.761 Y-5.977 E.01653
G1 X-8.755 Y.017 E.26161
G1 X-8.755 Y-.519 E.01653
G1 X-3.297 Y-5.977 E.23823
G1 X-3.833 Y-5.977 E.01653
G1 X-8.755 Y-1.055 E.21485
G1 X-8.755 Y-1.59 E.01653
G1 X-4.368 Y-5.977 E.19147
G1 X-4.904 Y-5.977 E.01653
G1 X-8.755 Y-2.126 E.16809
G1 X-8.755 Y-2.662 E.01653
G1 X-5.439 Y-5.977 E.14471
G1 X-5.975 Y-5.977 E.01653
G1 X-8.755 Y-3.197 E.12133
G1 X-8.755 Y-3.733 E.01653
G1 X-6.511 Y-5.977 E.09795
G1 X-7.046 Y-5.977 E.01653
G1 X-8.755 Y-4.269 E.07457
G1 X-8.755 Y-4.804 E.01653
G1 X-7.582 Y-5.977 E.05119
G1 X-8.118 Y-5.977 E.01653
G1 X-8.925 Y-5.17 E.03522
SET_VELOCITY_LIMIT ACCEL=10000
G1 X5.435 Y4.52 F30000
SET_VELOCITY_LIMIT ACCEL=7000
;WIDTH:0.419999
G1 F5226
G1 X4.174 Y5.781 E.05479
G1 X7.129 Y5.781 E.0908
G1 X8.356 Y5.166 E.04215
G1 X8.356 Y4.527 E.01965
G1 X5.475 Y4.52 E.08853
SET_VELOCITY_LIMIT ACCEL=10000
G1 X5.162 Y5.371 F30000
SET_VELOCITY_LIMIT ACCEL=7000
;WIDTH:0.483611
G1 F5226
G1 X7.032 Y5.372 E.06716
G1 X7.907 Y4.934 E.0351
G1 X5.604 Y4.93 E.08269
G1 X5.19 Y5.343 E.021
SET_VELOCITY_LIMIT ACCEL=10000
G1 E-.8 F2100
;WIPE_START
G1 F13892.843
G1 X5.604 Y4.93
G1 X7.019 Y4.933
;WIPE_END
G1 X7.727 Y.688 Z.8 F30000
G1 Z.4
G1 E.8 F2100
SET_VELOCITY_LIMIT ACCEL=7000
;WIDTH:0.505236
G1 F5226
G1 X8.516 Y.688 E.02973
G1 X8.516 Y-.101 E.02973
G1 X7.755 Y.66 E.04054
;LAYER_CHANGE
;Z:0.6
;HEIGHT:0.2
;BEFORE_LAYER_CHANGE
;0.6
G1 E-.8 F2100
;WIPE_START
G1 F13242.996
G1 X8.516 Y-.101
G1 X8.516 Y.688
G1 X8.382 Y.688
;WIPE_END
;AFTER_LAYER_CHANGE
;0.6
;_SET_FAN_SPEED_CHANGING_LAYER
SET_VELOCITY_LIMIT ACCEL=10000
G17
G3 Z1 I-.038 J-1.216 P1  F30000
G1 X-5.648 Y1.123 Z1
G1 Z.6
G1 E.8 F2100
SET_VELOCITY_LIMIT ACCEL=5000
;TYPE:Inner wall
;WIDTH:0.45
G1 F5040
G1 X-8.951 Y1.123 E.10957
G1 X-8.951 Y-6.173 E.24202
G1 X8.951 Y-6.173 E.59384
G1 X8.951 Y1.123 E.24202
G1 X5.648 Y1.123 E.10957
G1 X5.648 Y4.128 E.0997
M73 P5 R13
G1 X8.748 Y4.136 E.10285
G1 X8.748 Y5.409 E.04222
G1 X7.222 Y6.173 E.05661
G1 X-7.223 Y6.172 E.47915
G1 X-8.748 Y5.409 E.05657
G1 X-8.748 Y4.136 E.04222
G1 X-5.648 Y4.128 E.10285
G1 X-5.648 Y1.163 E.09837
SET_VELOCITY_LIMIT ACCEL=10000
G1 X-6.083 Y1.558 F30000
SET_VELOCITY_LIMIT ACCEL=5000
;TYPE:Outer wall
;WIDTH:0.42
G1 F4800
G1 X-9.386 Y1.558 E.10149
G1 X-9.386 Y-6.608 E.25091
G1 X9.386 Y-6.608 E.57681
G1 X9.386 Y1.558 E.25091
G1 X6.083 Y1.558 E.10149
G1 X6.083 Y3.694 E.06565
G1 X9.184 Y3.702 E.09527
G1 X9.183 Y5.677 E.0607
G1 X7.324 Y6.608 E.06385
G1 X-7.326 Y6.607 E.45016
G1 X-9.182 Y5.677 E.06381
G1 X-9.184 Y3.702 E.0607
G1 X-6.083 Y3.694 E.09527
G1 X-6.083 Y1.598 E.06442
SET_VELOCITY_LIMIT ACCEL=10000
G1 E-.8 F2100
;WIPE_START
G1 F4800
G1 X-8.083 Y1.573
;WIPE_END
G1 X-5.256 Y3.556 Z1 F30000
G1 Z.6
G1 E.8 F2100
SET_VELOCITY_LIMIT ACCEL=7000
;TYPE:Internal solid infill
;WIDTH:0.419999
G1 F5040
G1 X-5.256 Y4.331 E.02383
G1 X-5.32 Y4.473 E.0048
G1 X-5.444 Y4.52 E.00405
G1 X-8.356 Y4.527 E.08948
G1 X-8.356 Y5.167 E.01965
G1 X-7.13 Y5.78 E.04211
G1 X-3.031 Y5.78 E.12595
G1 X-5.228 Y3.584 E.09545
SET_VELOCITY_LIMIT ACCEL=10000
G1 X-4.921 Y4.424 F30000
SET_VELOCITY_LIMIT ACCEL=7000
G1 F5040
G1 X-5.073 Y4.758 E.01126
;WIDTH:0.436158
G1 X-5.211 Y4.843 E.00522
;WIDTH:0.482838
G1 X-5.35 Y4.929 E.00584
G1 X-7.907 Y4.934 E.09167
G1 X-7.034 Y5.372 E.03502
G1 X-5.442 Y5.371 E.05704
;WIDTH:0.468474
G1 X-5.136 Y5.387 E.01062
;WIDTH:0.423896
G1 X-4.831 Y5.403 E.00951
G1 X-3.942 Y5.403 E.0276
G1 X-4.893 Y4.452 E.04176
SET_VELOCITY_LIMIT ACCEL=10000
G1 X-4.808 Y4.996 F30000
SET_VELOCITY_LIMIT ACCEL=7000
;WIDTH:0.40231
G1 F5040
G1 X-4.875 Y5.035 E.00228
G1 X-4.806 Y5.07 E.00228
SET_VELOCITY_LIMIT ACCEL=10000
G1 X6.911 Y4.523 F30000
SET_VELOCITY_LIMIT ACCEL=7000
;WIDTH:0.419999
G1 F5040
G1 X7.821 Y5.434 E.03957
G1 X8.356 Y5.166 E.01837
G1 X8.356 Y4.527 E.01965
G1 X6.951 Y4.524 E.04318
SET_VELOCITY_LIMIT ACCEL=10000
G1 X7.93 Y4.888 F30000
SET_VELOCITY_LIMIT ACCEL=7000
;WIDTH:0.485062
G1 F5040
G1 X7.874 Y4.888 E.00199
G1 X7.847 Y4.936 E.00199
G1 X7.874 Y4.983 E.00199
G1 X7.937 Y4.97 E.00232
SET_VELOCITY_LIMIT ACCEL=10000
G1 E-.8 F2100
;WIPE_START
G1 F13847.246
G1 X7.874 Y4.983
G1 X7.847 Y4.936
G1 X7.874 Y4.888
G1 X7.93 Y4.888
;WIPE_END
G1 X7.46 Y-2.73 Z1 F30000
G1 X7.271 Y-5.781 Z1
G1 Z.6
G1 E.8 F2100
SET_VELOCITY_LIMIT ACCEL=7000
;WIDTH:0.419999
G1 F5040
G1 X8.559 Y-4.494 E.05594
G1 X8.559 Y-5.781 E.03956
G1 X7.311 Y-5.781 E.03833
SET_VELOCITY_LIMIT ACCEL=10000
G1 X8.205 Y-5.445 F30000
SET_VELOCITY_LIMIT ACCEL=7000
;WIDTH:0.419998
G1 F5040
G1 X8.135 Y-5.404 E.00251
G1 X8.209 Y-5.369 E.00252
SET_VELOCITY_LIMIT ACCEL=10000
G1 X6.42 Y-6.147 F30000
SET_VELOCITY_LIMIT ACCEL=7000
;WIDTH:0.428426
G1 F5040
G1 X8.755 Y-3.812 E.10374
G1 X8.755 Y-3.266 E.01713
G1 X6.044 Y-5.977 E.12042
G1 X5.499 Y-5.977 E.01713
G1 X8.755 Y-2.721 E.14464
G1 X8.755 Y-2.176 E.01713
G1 X4.954 Y-5.977 E.16886
G1 X4.409 Y-5.977 E.01713
G1 X8.755 Y-1.631 E.19308
G1 X8.755 Y-1.086 E.01713
G1 X3.864 Y-5.977 E.21731
G1 X3.318 Y-5.977 E.01713
G1 X8.755 Y-.541 E.24153
G1 X8.755 Y.005 E.01713
G1 X2.773 Y-5.977 E.26575
G1 X2.228 Y-5.977 E.01713
G1 X8.755 Y.55 E.28997
G1 X8.755 Y.927 E.01184
G1 X8.587 Y.927 E.00529
G1 X1.683 Y-5.977 E.30671
G1 X1.138 Y-5.977 E.01713
G1 X8.041 Y.927 E.30671
G1 X7.496 Y.927 E.01713
G1 X.592 Y-5.977 E.30671
G1 X.047 Y-5.977 E.01713
G1 X6.951 Y.927 E.30671
G1 X6.406 Y.927 E.01713
G1 X-.498 Y-5.977 E.30671
G1 X-1.043 Y-5.977 E.01713
G1 X5.861 Y.927 E.30671
G1 X5.452 Y.927 E.01284
G1 X5.452 Y1.063 E.00429
G1 X-1.588 Y-5.977 E.31277
G1 X-2.134 Y-5.977 E.01713
G1 X5.452 Y1.608 E.33699
G1 X5.452 Y2.153 E.01713
G1 X-2.679 Y-5.977 E.36121
G1 X-3.224 Y-5.977 E.01713
G1 X5.452 Y2.699 E.38543
G1 X5.452 Y3.244 E.01713
G1 X-3.769 Y-5.977 E.40965
G1 X-4.314 Y-5.977 E.01713
G1 X5.452 Y3.789 E.43387
G1 X5.452 Y4.324 E.0168
G1 X5.988 Y4.325 E.01684
G1 X7.485 Y5.822 E.06649
G1 X7.175 Y5.977 E.01087
G1 X7.094 Y5.977 E.00254
G1 X-4.859 Y-5.977 E.53106
G1 X-5.405 Y-5.977 E.01713
G1 X6.549 Y5.977 E.53106
G1 X6.004 Y5.977 E.01713
G1 X-5.95 Y-5.977 E.53106
G1 X-6.495 Y-5.977 E.01713
G1 X5.459 Y5.977 E.53106
G1 X4.914 Y5.977 E.01713
G1 X-7.04 Y-5.977 E.53106
G1 X-7.585 Y-5.977 E.01713
G1 X4.368 Y5.977 E.53106
G1 X3.823 Y5.977 E.01713
G1 X-8.131 Y-5.977 E.53106
G1 X-8.676 Y-5.977 E.01713
G1 X3.278 Y5.977 E.53106
G1 X2.733 Y5.977 E.01713
G1 X-8.755 Y-5.511 E.51035
G1 X-8.755 Y-4.966 E.01713
G1 X2.188 Y5.977 E.48613
G1 X1.642 Y5.977 E.01713
G1 X-8.755 Y-4.421 E.46191
