; HEADER_BLOCK_START
; generated by OrcaSlicer 2.3.1 on 2026-03-10 at 15:16:19
; total layer number: 99
; filament_density: 1.27
; filament_diameter: 1.75
; max_z_height: 19.80
; HEADER_BLOCK_END

; THUMBNAIL_BLOCK_START

;
; THUMBNAIL_BLOCK_END

; external perimeters extrusion width = 0.42mm
; perimeters extrusion width = 0.45mm
; infill extrusion width = 0.45mm
; solid infill extrusion width = 0.42mm
; top infill extrusion width = 0.42mm
; support material extrusion width = 0.42mm
; first layer extrusion width = 0.50mm

; EXECUTABLE_BLOCK_START
M73 P0 R14
M106 S0
M106 P2 S0
;TYPE:Custom
M190 S80
M104 S245
G90
M83
G1 Z5 F6000
G1 E-0.2 F800
G1 X110 Y-110 F6000
G1 E2 F800
G1 Y-110 X55 Z0.25 F4800
G1 X-55 E8 F2400
G1 Y-109.6 F2400
G1 X55 E5 F2400
G1 Y-110 X55 Z0.45 F4800
G1 X-55 E8 F2400
G1 Y-109.6 F2400
M73 P1 R14
G1 X55 E5 F2400
G92 E0
G90
G21
M83 ; use relative distances for extrusion
; Filament gcode
M106 S0
M106 P2 S0
;LAYER_CHANGE
;Z:0.2
;HEIGHT:0.2
;BEFORE_LAYER_CHANGE
;0.2
G1 E-.8 F2100
;AFTER_LAYER_CHANGE
;0.2
;_SET_FAN_SPEED_CHANGING_LAYER
SET_VELOCITY_LIMIT ACCEL=500
G1 X5.393 Y-2.516 F30000
G1 Z.6
G1 Z.2
G1 E.8 F2100
;TYPE:Inner wall
;WIDTH:0.5
G1 F1920
G1 X5.393 Y1.102 E.13474
G1 X8.493 Y1.102 E.11547
G1 X8.493 Y1.968 E.03227
G1 X7.162 Y2.635 E.05544
G1 X-7.16 Y2.635 E.53342
G1 X-8.493 Y1.969 E.05552
G1 X-8.493 Y1.102 E.0323
G1 X-5.393 Y1.102 E.11545
G1 X-5.393 Y-2.635 E.13919
G1 X5.393 Y-2.635 E.40173
G1 X5.393 Y-2.556 E.00296
G1 X5.893 Y-2.016 F30000
;TYPE:Outer wall
G1 F1920
G1 X5.893 Y.602 E.09751
G1 X8.993 Y.602 E.11548
G1 X8.993 Y2.277 E.06239
G1 X7.28 Y3.135 E.07134
G1 X-7.277 Y3.135 E.54221
G1 X-8.993 Y2.278 E.07144
M73 P2 R14
G1 X-8.992 Y.602 E.06243
G1 X-5.893 Y.602 E.11544
G1 X-5.893 Y-2.016 E.09751
G1 X-9.196 Y-2.017 E.12303
G1 X-9.196 Y-3.135 E.04162
G1 X9.196 Y-3.135 E.68503
G1 X9.196 Y-2.017 E.04164
G1 X5.933 Y-2.016 E.12154
G1 X5.643 Y-2.576 F30000
;TYPE:Gap infill
;WIDTH:0.660998
G1 F1920
G1 X8.946 Y-2.576 E.16636
G1 E-.8 F2100
;WIPE_START
G1 F3000
G1 X6.946 Y-2.576
;WIPE_END
G1 X5.256 Y-1.55 Z.6 F30000
G1 Z.2
G1 E.8 F2100
;TYPE:Bottom surface
;WIDTH:0.511211
G1 F1920
G1 X4.514 Y-2.292 E.04005
G1 X3.852 Y-2.292 E.02527
G1 X5.05 Y-1.094 E.06468
G1 X5.05 Y-.431 E.02527
G1 X3.189 Y-2.292 E.10042
G1 X2.527 Y-2.292 E.02527
G1 X5.256 Y.436 E.14726
G1 E-.8 F2100
;WIPE_START
G1 F4800
G1 X3.842 Y-.978
;WIPE_END
G1 X7.383 Y1.239 Z.6 F30000
G1 Z.2
G1 E.8 F2100
G1 F1920
G1 X7.685 Y1.541 E.01631
G1 X7.742 Y1.961 E.01616
G1 X7.542 Y2.061 E.00851
G1 X6.926 Y1.445 E.03324
G1 X6.264 Y1.445 E.02527
G1 X7.101 Y2.282 E.04517
G1 X7.081 Y2.292 E.00087
G1 X6.449 Y2.292 E.0241
G1 X5.602 Y1.445 E.04572
G1 X5.05 Y1.445 E.02106
G1 X5.05 Y.893 E.02106
G1 X1.865 Y-2.292 E.1719
G1 X1.203 Y-2.292 E.02527
G1 X5.787 Y2.292 E.2474
G1 X5.125 Y2.292 E.02527
G1 X.54 Y-2.292 E.2474
G1 X-.122 Y-2.292 E.02527
G1 X4.462 Y2.292 E.2474
G1 X3.8 Y2.292 E.02527
G1 X-.784 Y-2.292 E.2474
G1 X-1.446 Y-2.292 E.02527
G1 X3.138 Y2.292 E.2474
G1 X2.476 Y2.292 E.02527
G1 X-2.109 Y-2.292 E.2474
G1 X-2.771 Y-2.292 E.02527
G1 X1.813 Y2.292 E.2474
G1 X1.151 Y2.292 E.02527
G1 X-3.433 Y-2.292 E.2474
G1 X-4.095 Y-2.292 E.02527
G1 X.489 Y2.292 E.2474
G1 X-.173 Y2.292 E.02527
G1 X-4.758 Y-2.292 E.24741
G1 X-5.05 Y-2.292 E.01116
G1 X-5.05 Y-1.922 E.01411
G1 X-.835 Y2.292 E.22745
G1 X-1.498 Y2.292 E.02527
G1 X-5.05 Y-1.26 E.19171
G1 X-5.05 Y-.598 E.02527
G1 X-2.16 Y2.292 E.15597
G1 X-2.822 Y2.292 E.02527
G1 X-5.05 Y.064 E.12023
G1 X-5.05 Y.727 E.02527
G1 X-3.484 Y2.292 E.08449
G1 X-4.147 Y2.292 E.02527
G1 X-5.05 Y1.389 E.04875
G1 X-5.05 Y1.445 E.00213
G1 X-5.657 Y1.445 E.02314
G1 X-4.809 Y2.292 E.04574
G1 X-5.471 Y2.292 E.02527
G1 X-6.319 Y1.445 E.04574
G1 X-6.981 Y1.445 E.02527
G1 X-6.133 Y2.292 E.04574
G1 X-6.796 Y2.293 E.02527
G1 X-7.849 Y1.239 E.05685
G1 X-8.134 Y1.331 F30000
;TYPE:Gap infill
;WIDTH:0.257714
G1 F1920
G1 X-8.165 Y1.596 E.00469
;WIDTH:0.238459
G1 X-8.196 Y1.862 E.00427
G1 E-.8 F2100
;WIPE_START
G1 F3000
G1 X-8.165 Y1.596
;WIPE_END
G1 X-8.946 Y-2.576 Z.6 F30000
G1 Z.2
G1 E.8 F2100
;WIDTH:0.661861
G1 F1920
G1 X-5.643 Y-2.575 E.16659
G1 E-.8 F2100
;WIPE_START
G1 F3000
G1 X-7.643 Y-2.576
;WIPE_END
G1 X-.234 Y-.741 Z.6 F30000
M73 P2 R13
G1 X8.133 Y1.331 Z.6
M73 P3 R13
G1 Z.2
G1 E.8 F2100
;WIDTH:0.258691
G1 F1920
G1 X8.164 Y1.596 E.0047
;WIDTH:0.239393
G1 X8.195 Y1.862 E.00428
;LAYER_CHANGE
;Z:0.4
;HEIGHT:0.2
;BEFORE_LAYER_CHANGE
;0.4
G1 E-.8 F2100
;WIPE_START
G1 F3000
G1 X8.164 Y1.596
;WIPE_END
;AFTER_LAYER_CHANGE
;0.4
;_SET_FAN_SPEED_CHANGING_LAYER
SET_VELOCITY_LIMIT ACCEL=10000
M104 S240 ; set nozzle temperature
M140 S80 ; set bed temperature
G17
G3 Z.8 I1.019 J-.665 P1  F30000
G1 X5.648 Y-2.261 Z.8
G1 Z.4
G1 E.8 F2100
SET_VELOCITY_LIMIT ACCEL=5000
;TYPE:Inner wall
;WIDTH:0.45
G1 F2501
G1 X5.648 Y.845 E.10304
G1 X8.748 Y.853 E.10285
G1 X8.748 Y2.126 E.04222
G1 X7.222 Y2.89 E.0566
G1 X-7.219 Y2.89 E.47905
G1 X-8.748 Y2.124 E.05673
G1 X-8.747 Y.85 E.04226
G1 X-5.648 Y.846 E.10282
G1 X-5.648 Y-2.261 E.10307
G1 X-8.945 Y-2.262 E.10938
G1 X-8.945 Y-2.89 E.02081
G1 X8.948 Y-2.887 E.59352
G1 X8.947 Y-2.262 E.02072
G1 X5.688 Y-2.261 E.10811
SET_VELOCITY_LIMIT ACCEL=10000
G1 X6.083 Y-1.826 F30000
SET_VELOCITY_LIMIT ACCEL=5000
;TYPE:Outer wall
;WIDTH:0.42
G1 F2501
G1 X6.083 Y.411 E.06875
G1 X9.184 Y.419 E.09527
G1 X9.183 Y2.395 E.0607
G1 X7.325 Y3.325 E.06384
G1 X-7.322 Y3.325 E.45006
G1 X-9.183 Y2.393 E.06397
G1 X-9.182 Y.416 E.06074
G1 X-6.083 Y.412 E.09523
G1 X-6.083 Y-1.826 E.06876
G1 X-9.381 Y-1.828 E.10134
G1 X-9.379 Y-3.325 E.04601
G1 X9.383 Y-3.322 E.57652
G1 X9.381 Y-1.828 E.04592
G1 X6.123 Y-1.826 E.10012
SET_VELOCITY_LIMIT ACCEL=10000
G1 E-.8 F2100
;WIPE_START
G1 F4800
G1 X6.087 Y.174
;WIPE_END
G1 X5.444 Y-2.574 Z.8 F30000
G1 Z.4
G1 E.8 F2100
;TYPE:Gap infill
;WIDTH:0.260604
G1 F2501
G1 X8.744 Y-2.575 E.05853
G1 E-.8 F2100
;WIPE_START
G1 F12000
G1 X6.744 Y-2.574
;WIPE_END
G1 X4.115 Y2.498 Z.8 F30000
G1 Z.4
G1 E.8 F2100
SET_VELOCITY_LIMIT ACCEL=7000
;TYPE:Internal solid infill
;WIDTH:0.419999
G1 F2501
G1 X7.129 Y2.498 E.09262
G1 X8.356 Y1.884 E.04214
G1 X8.356 Y1.244 E.01965
G1 X5.444 Y1.237 E.08948
G1 X5.41 Y1.203 E.00147
G1 X4.143 Y2.47 E.05504
SET_VELOCITY_LIMIT ACCEL=10000
G1 X5.103 Y2.088 F30000
SET_VELOCITY_LIMIT ACCEL=7000
;WIDTH:0.483595
G1 F2501
G1 X6.981 Y2.089 E.06741
G1 X7.907 Y1.652 E.03677
G1 X5.545 Y1.647 E.08479
G1 X5.132 Y2.06 E.021
SET_VELOCITY_LIMIT ACCEL=10000
G1 X3.267 Y2.864 F30000
SET_VELOCITY_LIMIT ACCEL=7000
;WIDTH:0.4229
G1 F2501
G1 X5.452 Y.679 E.09566
G1 X5.452 Y.142 E.01664
G1 X2.9 Y2.694 E.11176
G1 X2.362 Y2.694 E.01664
G1 X5.452 Y-.396 E.13529
G1 X5.452 Y-.933 E.01664
G1 X1.825 Y2.694 E.15882
G1 X1.288 Y2.694 E.01664
G1 X5.452 Y-1.47 E.18235
G1 X5.452 Y-2.008 E.01664
G1 X.75 Y2.694 E.20589
G1 X.213 Y2.694 E.01664
G1 X5.248 Y-2.342 E.22051
G1 X5.248 Y-2.691 E.01083
G1 X5.061 Y-2.692 E.0058
G1 X-.325 Y2.694 E.23583
G1 X-.862 Y2.694 E.01664
G1 X4.524 Y-2.692 E.23583
G1 X3.986 Y-2.692 E.01664
G1 X-1.399 Y2.694 E.23584
G1 X-1.937 Y2.694 E.01664
G1 X3.449 Y-2.692 E.23584
G1 X2.912 Y-2.692 E.01664
G1 X-2.474 Y2.694 E.23585
G1 X-3.012 Y2.694 E.01664
G1 X2.374 Y-2.692 E.23585
G1 X1.837 Y-2.692 E.01664
G1 X-3.549 Y2.694 E.23586
G1 X-4.086 Y2.694 E.01664
G1 X1.3 Y-2.692 E.23586
G1 X.763 Y-2.692 E.01664
G1 X-4.624 Y2.694 E.23587
G1 X-5.161 Y2.694 E.01664
G1 X.225 Y-2.692 E.23587
G1 X-.312 Y-2.692 E.01664
G1 X-5.699 Y2.694 E.23587
G1 X-6.236 Y2.694 E.01664
G1 X-.849 Y-2.692 E.23588
G1 X-1.387 Y-2.693 E.01664
G1 X-6.773 Y2.694 E.23588
G1 X-7.173 Y2.694 E.01237
G1 X-7.265 Y2.648 E.00318
G1 X-1.924 Y-2.693 E.23387
G1 X-2.461 Y-2.693 E.01664
G1 X-5.452 Y.298 E.13096
G1 X-5.452 Y-.239 E.01664
G1 X-2.998 Y-2.693 E.10744
G1 X-3.536 Y-2.693 E.01664
M73 P4 R13
G1 X-5.452 Y-.777 E.08391
G1 X-5.452 Y-1.314 E.01664
G1 X-4.073 Y-2.693 E.06038
G1 X-4.61 Y-2.693 E.01664
G1 X-5.622 Y-1.682 E.04428
SET_VELOCITY_LIMIT ACCEL=10000
G1 X-6.027 Y.873 F30000
SET_VELOCITY_LIMIT ACCEL=7000
G1 F2501
G1 X-7.623 Y2.469 E.06988
G1 X-7.981 Y2.289 E.0124
G1 X-6.735 Y1.044 E.05455
G1 X-7.273 Y1.044 E.01666
G1 X-8.339 Y2.11 E.04667
G1 X-8.552 Y2.003 E.00739
G1 X-8.552 Y1.786 E.00673
G1 X-7.641 Y.875 E.03988
SET_VELOCITY_LIMIT ACCEL=10000
G1 X-8.375 Y1.165 F30000
SET_VELOCITY_LIMIT ACCEL=7000
;WIDTH:0.38292
G1 F2501
G1 X-8.439 Y1.201 E.00204
G1 X-8.374 Y1.236 E.00204
SET_VELOCITY_LIMIT ACCEL=10000
G1 E-.8 F2100
;WIPE_START
G1 F15000
G1 X-8.439 Y1.201
G1 X-8.375 Y1.165
;WIPE_END
G1 X-8.742 Y-2.576 Z.8 F30000
G1 Z.4
G1 E.8 F2100
;TYPE:Gap infill
;WIDTH:0.264238
G1 F2501
G1 X-5.444 Y-2.575 E.05946
G1 X-5.1 Y-2.603 F30000
SET_VELOCITY_LIMIT ACCEL=7000
;TYPE:Internal solid infill
;WIDTH:0.38292
G1 F2501
G1 X-5.164 Y-2.566 E.00204
G1 X-5.099 Y-2.532 E.00204
;LAYER_CHANGE
;Z:0.6
;HEIGHT:0.2
;BEFORE_LAYER_CHANGE
;0.6
G1 E-.8 F2100
;WIPE_START
G1 F15000
G1 X-5.164 Y-2.566
G1 X-5.1 Y-2.603
;WIPE_END
;AFTER_LAYER_CHANGE
;0.6
;_SET_FAN_SPEED_CHANGING_LAYER
SET_VELOCITY_LIMIT ACCEL=10000
G17
G3 Z1 I-.039 J1.216 P1  F30000
G1 X5.648 Y-2.261 Z1
G1 Z.6
G1 E.8 F2100
SET_VELOCITY_LIMIT ACCEL=5000
;TYPE:Inner wall
;WIDTH:0.45
G1 F2502
G1 X5.648 Y.845 E.10304
G1 X8.748 Y.853 E.10285
G1 X8.748 Y2.126 E.04222
G1 X7.222 Y2.89 E.0566
G1 X-7.219 Y2.89 E.47905
G1 X-8.748 Y2.124 E.05673
G1 X-8.747 Y.85 E.04226
G1 X-5.648 Y.846 E.10282
G1 X-5.648 Y-2.261 E.10307
G1 X-8.945 Y-2.262 E.10938
G1 X-8.945 Y-2.89 E.02081
G1 X8.947 Y-2.887 E.59351
G1 X8.947 Y-2.262 E.02074
G1 X5.688 Y-2.261 E.1081
SET_VELOCITY_LIMIT ACCEL=10000
G1 X6.083 Y-1.826 F30000
SET_VELOCITY_LIMIT ACCEL=5000
;TYPE:Outer wall
;WIDTH:0.42
G1 F2502
G1 X6.083 Y.411 E.06875
G1 X9.184 Y.419 E.09527
G1 X9.183 Y2.395 E.0607
G1 X7.325 Y3.325 E.06384
G1 X-7.322 Y3.325 E.45006
G1 X-9.183 Y2.393 E.06397
G1 X-9.182 Y.416 E.06074
G1 X-6.083 Y.412 E.09523
G1 X-6.083 Y-1.826 E.06876
G1 X-9.381 Y-1.828 E.10134
G1 X-9.379 Y-3.325 E.04601
G1 X9.383 Y-3.322 E.5765
G1 X9.381 Y-1.828 E.04593
G1 X6.123 Y-1.826 E.10012
SET_VELOCITY_LIMIT ACCEL=10000
G1 E-.8 F2100
;WIPE_START
G1 F4800
G1 X6.087 Y.174
;WIPE_END
G1 X5.444 Y-2.574 Z1 F30000
G1 Z.6
G1 E.8 F2100
;TYPE:Gap infill
;WIDTH:0.261143
G1 F2502
G1 X8.744 Y-2.575 E.05867
G1 E-.8 F2100
;WIPE_START
G1 F12000
G1 X6.744 Y-2.575
;WIPE_END
G1 X6.912 Y1.241 Z1 F30000
G1 Z.6
G1 E.8 F2100
SET_VELOCITY_LIMIT ACCEL=7000
;TYPE:Internal solid infill
;WIDTH:0.419999
G1 F2502
G1 X7.822 Y2.151 E.03955
G1 X8.356 Y1.884 E.01834
G1 X8.356 Y1.244 E.01965
G1 X6.952 Y1.241 E.04315
SET_VELOCITY_LIMIT ACCEL=10000
G1 X7.93 Y1.605 F30000
SET_VELOCITY_LIMIT ACCEL=7000
;WIDTH:0.484722
G1 F2502
G1 X7.875 Y1.605 E.00199
G1 X7.848 Y1.653 E.00199
G1 X7.875 Y1.7 E.00199
G1 X7.938 Y1.687 E.00231
SET_VELOCITY_LIMIT ACCEL=10000
G1 E-.8 F2100
;WIPE_START
G1 F13857.901
G1 X7.875 Y1.7
G1 X7.848 Y1.653
G1 X7.875 Y1.605
G1 X7.93 Y1.605
;WIPE_END
G1 X4.301 Y-2.472 Z1 F30000
G1 Z.6
G1 E.8 F2100
SET_VELOCITY_LIMIT ACCEL=7000
;WIDTH:0.468881
G1 F2502
G1 X4.664 Y-2.108 E.01785
;WIDTH:0.454055
G1 X4.963 Y-1.789 E.01464
;WIDTH:0.414438
G1 X5.261 Y-1.469 E.01323
G1 X5.261 Y-2.037 E.01718
G1 X5.115 Y-2.114 E.00501
;WIDTH:0.417242
G1 X5.071 Y-2.186 E.00257
;WIDTH:0.465933
G1 X5.028 Y-2.259 E.00291
G1 X5.028 Y-2.471 E.00734
G1 X4.341 Y-2.472 E.02369
SET_VELOCITY_LIMIT ACCEL=10000
G1 X3.393 Y-2.862 F30000
SET_VELOCITY_LIMIT ACCEL=7000
;WIDTH:0.423427
G1 F2502
G1 X5.452 Y-.803 E.09026
G1 X5.452 Y-.265 E.01669
G1 X3.025 Y-2.692 E.10642
G1 X2.487 Y-2.692 E.01669
G1 X5.622 Y.443 E.13746
SET_VELOCITY_LIMIT ACCEL=10000
G1 X6.052 Y.873 F30000
SET_VELOCITY_LIMIT ACCEL=7000
G1 F2502
G1 X7.64 Y2.461 E.06965
G1 X7.282 Y2.641 E.01243
G1 X1.949 Y-2.692 E.23385
G1 X1.41 Y-2.692 E.01669
G1 X6.797 Y2.694 E.23618
G1 X6.259 Y2.694 E.01668
G1 X.872 Y-2.692 E.23619
G1 X.334 Y-2.693 E.01669
G1 X5.72 Y2.694 E.23619
G1 X5.182 Y2.694 E.01668
G1 X-.204 Y-2.693 E.2362
G1 X-.742 Y-2.693 E.01669
G1 X4.644 Y2.694 E.2362
G1 X4.106 Y2.694 E.01668
G1 X-1.281 Y-2.693 E.2362
G1 X-1.819 Y-2.693 E.01669
G1 X3.568 Y2.694 E.23621
G1 X3.03 Y2.694 E.01668
G1 X-2.357 Y-2.693 E.23621
G1 X-2.895 Y-2.693 E.01669
G1 X2.492 Y2.694 E.23622
G1 X1.954 Y2.694 E.01668
G1 X-3.433 Y-2.693 E.23622
G1 X-3.971 Y-2.693 E.01669
G1 X1.416 Y2.694 E.23622
G1 X.878 Y2.694 E.01668
G1 X-4.51 Y-2.693 E.23623
G1 X-5.048 Y-2.693 E.01669
G1 X.339 Y2.694 E.23623
G1 X-.199 Y2.694 E.01668
G1 X-5.248 Y-2.356 E.22143
G1 X-5.248 Y-2.247 E.00338
G1 X-5.452 Y-2.247 E.00631
G1 X-5.452 Y-2.021 E.007
G1 X-.737 Y2.694 E.20676
G1 X-1.275 Y2.694 E.01668
G1 X-5.452 Y-1.483 E.18316
G1 X-5.452 Y-.945 E.01669
M73 P5 R13
G1 X-1.813 Y2.694 E.15957
G1 X-2.351 Y2.694 E.01668
G1 X-5.622 Y-.576 E.14341
SET_VELOCITY_LIMIT ACCEL=10000
G1 X-5.444 Y-2.575 F30000
;TYPE:Gap infill
;WIDTH:0.264356
G1 F2502
G1 X-8.742 Y-2.576 E.05949
G1 E-.8 F2100
;WIPE_START
G1 F12000
G1 X-6.742 Y-2.575
;WIPE_END
G1 X-3.029 Y2.498 Z1 F30000
G1 Z.6
G1 E.8 F2100
SET_VELOCITY_LIMIT ACCEL=7000
;TYPE:Internal solid infill
;WIDTH:0.419999
G1 F2502
G1 X-5.256 Y.272 E.09675
G1 X-5.256 Y1.049 E.0239
G1 X-5.32 Y1.191 E.00479
G1 X-5.444 Y1.238 E.00407
G1 X-8.356 Y1.242 E.08946
G1 X-8.356 Y1.882 E.01967
G1 X-7.127 Y2.498 E.04225
G1 X-3.069 Y2.498 E.12466
SET_VELOCITY_LIMIT ACCEL=10000
G1 X-3.94 Y2.121 F30000
SET_VELOCITY_LIMIT ACCEL=7000
G1 F2502
G1 X-4.92 Y1.141 E.04261
G1 X-5.072 Y1.475 E.01129
;WIDTH:0.436125
G1 X-5.211 Y1.561 E.00524
;WIDTH:0.483334
G1 X-5.35 Y1.647 E.00587
G1 X-7.907 Y1.65 E.09175
G1 X-7.03 Y2.089 E.03519
G1 X-5.443 Y2.089 E.05694
;WIDTH:0.468377
G1 X-5.136 Y2.105 E.01066
;WIDTH:0.428567
G1 X-3.98 Y2.121 E.03635
SET_VELOCITY_LIMIT ACCEL=10000
G1 X-4.807 Y1.714 F30000
SET_VELOCITY_LIMIT ACCEL=7000
;WIDTH:0.402904
G1 F2502
G1 X-4.874 Y1.753 E.00229
G1 X-4.804 Y1.787 E.00229
M106 S252
;LAYER_CHANGE
;Z:0.8
;HEIGHT:0.2
;BEFORE_LAYER_CHANGE
;0.8
G1 E-.8 F2100
;WIPE_START
G1 F15000
G1 X-4.874 Y1.753
G1 X-4.807 Y1.714
;WIPE_END
;AFTER_LAYER_CHANGE
;0.8
;_SET_FAN_SPEED_CHANGING_LAYER
SET_VELOCITY_LIMIT ACCEL=10000
G17
G3 Z1.2 I.432 J1.138 P1  F30000
G1 X5.648 Y-2.261 Z1.2
G1 Z.8
G1 E.8 F2100
SET_VELOCITY_LIMIT ACCEL=5000
;TYPE:Inner wall
;WIDTH:0.45
G1 F1191
G1 X5.648 Y.845 E.10304
G1 X8.748 Y.853 E.10285
G1 X8.748 Y2.126 E.04222
G1 X7.222 Y2.89 E.0566
G1 X-7.219 Y2.89 E.47905
G1 X-8.748 Y2.124 E.05673
G1 X-8.747 Y.85 E.04226
G1 X-5.648 Y.846 E.10282
G1 X-5.648 Y-2.261 E.10307
G1 X-8.945 Y-2.262 E.10938
G1 X-8.945 Y-2.89 E.02081
G1 X8.947 Y-2.887 E.59351
G1 X8.947 Y-2.262 E.02074
G1 X5.688 Y-2.261 E.1081
SET_VELOCITY_LIMIT ACCEL=10000
G1 X6.083 Y-1.826 F30000
SET_VELOCITY_LIMIT ACCEL=5000
;TYPE:Outer wall
;WIDTH:0.42
G1 F1191
G1 X6.083 Y.411 E.06875
G1 X9.184 Y.419 E.09527
G1 X9.183 Y2.395 E.0607
G1 X7.325 Y3.325 E.06384
G1 X-7.322 Y3.325 E.45006
G1 X-9.183 Y2.393 E.06397
G1 X-9.182 Y.416 E.06074
G1 X-6.083 Y.412 E.09523
G1 X-6.083 Y-1.826 E.06876
G1 X-9.381 Y-1.828 E.10134
G1 X-9.379 Y-3.325 E.04601
G1 X9.383 Y-3.322 E.5765
G1 X9.381 Y-1.828 E.04593
G1 X6.123 Y-1.826 E.10012
SET_VELOCITY_LIMIT ACCEL=10000
G1 E-.8 F2100
;WIPE_START
G1 F4800
G1 X6.087 Y.174
;WIPE_END
G1 X5.444 Y-2.574 Z1.2 F30000
G1 Z.8
G1 E.8 F2100
;TYPE:Gap infill
;WIDTH:0.261141
G1 F1191
G1 X8.744 Y-2.575 E.05867
G1 E-.8 F2100
;WIPE_START
G1 F12000
G1 X6.744 Y-2.575
;WIPE_END
G1 X7.24 Y2.645 Z1.2 F30000
G1 Z.8
G1 E.8 F2100
;TYPE:Sparse infill
;WIDTH:0.45
G1 F1191
G1 X7.172 Y2.679 E.00251
G1 X5.62 Y2.679 E.0515
G1 X5.756 Y2.31 E.01304
G1 X6.071 Y1.058 E.04285
G1 X5.653 Y1.056 E.01389
G1 X5.367 Y2.19 E.03879
G1 X5.187 Y2.679 E.01726
G1 X-6.56 Y2.679 E.38969
G1 X-6.424 Y2.31 E.01305
M73 P6 R13
G1 X-6.108 Y1.058 E.04284
G1 X-6.527 Y1.058 E.0139
G1 X-6.813 Y2.19 E.03873
G1 X-6.993 Y2.679 E.01728
G1 X-7.169 Y2.679 E.00586
G1 X-8.467 Y2.029 E.04816
G1 X-5.437 Y-.265 F30000
G1 F1191
G1 X-5.437 Y-1.893 E.05401
G1 X-5.342 Y-2.232 E.01168
G1 X-5.233 Y-2.232 E.00359
G1 X-5.233 Y-2.678 E.01481
G1 X-4.16 Y-2.678 E.03562
G1 X-5.444 Y-2.575 F30000
;TYPE:Gap infill
;WIDTH:0.264356
G1 F1191
G1 X-8.742 Y-2.576 E.05949
;LAYER_CHANGE
;Z:1
;HEIGHT:0.2
;BEFORE_LAYER_CHANGE
;1
G1 E-.8 F2100
;WIPE_START
G1 F12000
G1 X-6.742 Y-2.575
;WIPE_END
;AFTER_LAYER_CHANGE
;1
