; HEADER_BLOCK_START
; generated by OrcaSlicer 2.3.1 on 2026-03-07 at 13:57:18
; total layer number: 546
; filament_density: 1.27
; filament_diameter: 1.75
; max_z_height: 109.20
; HEADER_BLOCK_END

; THUMBNAIL_BLOCK_START

;
; THUMBNAIL_BLOCK_END

; external perimeters extrusion width = 0.42mm
; perimeters extrusion width = 0.45mm
; infill extrusion width = 0.45mm
; solid infill extrusion width = 0.42mm
; top infill extrusion width = 0.42mm
; support material extrusion width = 0.42mm
; first layer extrusion width = 0.50mm

; EXECUTABLE_BLOCK_START
M73 P0 R79
M106 S0
M106 P2 S0
;TYPE:Custom
M190 S80
M104 S245
G90
M83
G1 Z5 F6000
G1 E-0.2 F800
G1 X110 Y-110 F6000
G1 E2 F800
G1 Y-110 X55 Z0.25 F4800
G1 X-55 E8 F2400
G1 Y-109.6 F2400
G1 X55 E5 F2400
G1 Y-110 X55 Z0.45 F4800
G1 X-55 E8 F2400
G1 Y-109.6 F2400
G1 X55 E5 F2400
G92 E0
G90
G21
M83 ; use relative distances for extrusion
; Filament gcode
M106 S0
M106 P2 S0
;LAYER_CHANGE
;Z:0.2
;HEIGHT:0.2
;BEFORE_LAYER_CHANGE
;0.2
G1 E-.8 F2100
;AFTER_LAYER_CHANGE
;0.2
;_SET_FAN_SPEED_CHANGING_LAYER
SET_VELOCITY_LIMIT ACCEL=500
G1 X21.093 Y-7.669 F30000
G1 Z.6
G1 Z.2
G1 E.8 F2100
;TYPE:Support
;WIDTH:0.5
G1 F3000
G1 X20.484 Y-7.626 E.02276
G1 X19.915 Y-7.647 E.02118
G1 X19.476 Y-7.71 E.01652
G1 X19.381 Y-7.674 E.00378
G1 X18.704 Y-7.626 E.02531
G1 X18.135 Y-7.647 E.02118
G1 X17.696 Y-7.71 E.01652
G1 X17.601 Y-7.674 E.00378
G1 X16.924 Y-7.626 E.02531
G1 X16.355 Y-7.647 E.02118
G1 X15.916 Y-7.71 E.01652
G1 X15.821 Y-7.674 E.00378
G1 X15.144 Y-7.626 E.02531
G1 X14.575 Y-7.647 E.02118
G1 X14.136 Y-7.71 E.01652
G1 X14.041 Y-7.674 E.00378
G1 X13.364 Y-7.626 E.02531
G1 X12.795 Y-7.647 E.02118
G1 X12.356 Y-7.71 E.01652
G1 X12.261 Y-7.674 E.00378
G1 X11.584 Y-7.626 E.02531
G1 X11.015 Y-7.647 E.02118
G1 X10.576 Y-7.71 E.01652
G1 X10.481 Y-7.674 E.00378
G1 X9.804 Y-7.626 E.02531
G1 X9.235 Y-7.647 E.02118
G1 X8.796 Y-7.71 E.01652
G1 X8.549 Y-7.616 E.00986
G1 X7.937 Y-7.683 E.02293
G1 X7.723 Y-7.603 E.0085
G1 X6.978 Y-7.696 E.02796
G1 X6.769 Y-7.616 E.00833
G1 X6.157 Y-7.683 E.02293
G1 X5.943 Y-7.603 E.0085
G1 X5.198 Y-7.696 E.02796
G1 X4.989 Y-7.616 E.00833
G1 X4.377 Y-7.683 E.02293
G1 X4.163 Y-7.603 E.0085
G1 X3.343 Y-7.705 E.03079
G1 X3.261 Y-7.674 E.00323
G1 X2.584 Y-7.626 E.02531
G1 X2.015 Y-7.647 E.02118
G1 X1.576 Y-7.71 E.01652
G1 X1.481 Y-7.674 E.00378
G1 X.804 Y-7.626 E.02531
G1 X.235 Y-7.647 E.02118
G1 X-.204 Y-7.71 E.01652
G1 X-.299 Y-7.674 E.00378
G1 X-.976 Y-7.626 E.02531
G1 X-1.545 Y-7.647 E.02118
G1 X-1.984 Y-7.71 E.01652
G1 X-2.079 Y-7.674 E.00378
G1 X-2.756 Y-7.626 E.02531
G1 X-3.325 Y-7.647 E.02118
G1 X-3.764 Y-7.71 E.01652
G1 X-4.011 Y-7.616 E.00986
G1 X-4.623 Y-7.683 E.02293
G1 X-4.837 Y-7.603 E.0085
G1 X-5.582 Y-7.696 E.02796
G1 X-5.791 Y-7.616 E.00833
G1 X-6.403 Y-7.683 E.02293
G1 X-6.617 Y-7.603 E.0085
G1 X-7.437 Y-7.705 E.03079
G1 X-7.519 Y-7.674 E.00323
G1 X-8.196 Y-7.626 E.02531
G1 X-8.765 Y-7.647 E.02118
G1 X-9.204 Y-7.71 E.01652
G1 X-9.299 Y-7.674 E.00378
G1 X-9.976 Y-7.626 E.02531
G1 X-10.545 Y-7.647 E.02118
G1 X-10.984 Y-7.71 E.01652
G1 X-11.079 Y-7.674 E.00378
G1 X-11.756 Y-7.626 E.02531
G1 X-12.325 Y-7.647 E.02118
G1 X-12.764 Y-7.71 E.01652
G1 X-12.859 Y-7.674 E.00378
G1 X-13.536 Y-7.626 E.02531
G1 X-14.105 Y-7.647 E.02118
G1 X-14.544 Y-7.71 E.01652
G1 X-14.639 Y-7.674 E.00378
G1 X-15.316 Y-7.626 E.02531
G1 X-15.885 Y-7.647 E.02118
G1 X-16.324 Y-7.71 E.01652
G1 X-16.419 Y-7.674 E.00378
G1 X-17.096 Y-7.626 E.02531
G1 X-17.665 Y-7.647 E.02118
G1 X-18.104 Y-7.71 E.01652
G1 X-18.199 Y-7.674 E.00378
G1 X-18.876 Y-7.626 E.02531
G1 X-19.445 Y-7.647 E.02118
G1 X-19.884 Y-7.71 E.01652
G1 X-19.979 Y-7.674 E.00378
G1 X-20.656 Y-7.626 E.02531
G1 X-21.225 Y-7.647 E.02118
G1 X-21.664 Y-7.71 E.01652
G1 X-21.878 Y-7.629 E.00856
G1 X-22.491 Y-7.672 E.02288
G1 X-22.843 Y-7.542 E.01397
G1 X-22.727 Y-7.088 E.01745
G1 X-22.864 Y-6.552 E.02061
G1 X-22.735 Y-6.049 E.01932
G1 X-22.825 Y-5.693 E.01369
G1 X-22.727 Y-5.305 E.01489
G1 X-22.864 Y-4.772 E.02051
G1 X-22.735 Y-4.269 E.01932
G1 X-22.825 Y-3.913 E.01369
G1 X-22.727 Y-3.525 E.01489
G1 X-22.864 Y-2.992 E.02051
G1 X-22.735 Y-2.489 E.01932
G1 X-22.825 Y-2.133 E.01369
G1 X-22.727 Y-1.745 E.01489
G1 X-22.864 Y-1.212 E.02051
G1 X-22.735 Y-.709 E.01932
G1 X-22.825 Y-.353 E.01369
G1 X-22.727 Y.035 E.01489
G1 X-22.864 Y.568 E.02051
G1 X-22.735 Y1.071 E.01932
G1 X-22.825 Y1.427 E.01369
G1 X-22.727 Y1.815 E.01489
G1 X-22.864 Y2.348 E.02051
G1 X-22.735 Y2.851 E.01932
G1 X-22.825 Y3.207 E.01369
G1 X-22.727 Y3.595 E.01489
G1 X-22.864 Y4.128 E.02051
G1 X-22.735 Y4.631 E.01932
G1 X-22.825 Y4.987 E.01369
G1 X-22.727 Y5.375 E.01489
G1 X-22.864 Y5.908 E.02051
G1 X-22.734 Y6.413 E.0194
G1 X-22.92 Y7.136 E.02779
G1 X-22.815 Y7.558 E.01619
G1 X-22.637 Y7.591 E.00676
G1 X-22.301 Y7.738 E.01365
G1 X-22.109 Y7.539 E.01031
G1 X-20.674 Y7.683 E.05372
G1 X-20.523 Y7.74 E.006
G1 X-20.329 Y7.539 E.01043
G1 X-18.894 Y7.683 E.05372
G1 X-18.743 Y7.74 E.006
G1 X-18.549 Y7.539 E.01043
G1 X-17.114 Y7.683 E.05372
G1 X-16.963 Y7.74 E.006
G1 X-16.769 Y7.539 E.01043
G1 X-15.334 Y7.683 E.05372
G1 X-15.183 Y7.74 E.006
G1 X-14.989 Y7.539 E.01043
G1 X-13.554 Y7.683 E.05372
G1 X-13.403 Y7.74 E.006
G1 X-13.209 Y7.539 E.01043
G1 X-11.774 Y7.683 E.05372
G1 X-11.623 Y7.74 E.006
G1 X-11.429 Y7.539 E.01043
G1 X-9.994 Y7.683 E.05372
G1 X-9.904 Y7.717 E.00359
G1 X-9.149 Y7.624 E.02835
G1 X-8.823 Y7.663 E.01223
G1 X-8.405 Y7.611 E.01569
G1 X-8.131 Y7.715 E.01089
G1 X-7.919 Y7.694 E.00796
G1 X-7.769 Y7.539 E.00803
G1 X-6.334 Y7.683 E.05372
G1 X-6.183 Y7.74 E.006
G1 X-5.989 Y7.539 E.01043
G1 X-4.554 Y7.683 E.05372
G1 X-4.403 Y7.74 E.006
G1 X-4.209 Y7.539 E.01043
G1 X-2.774 Y7.683 E.05372
G1 X-2.623 Y7.74 E.006
G1 X-2.429 Y7.539 E.01043
G1 X-.994 Y7.683 E.05372
G1 X-.843 Y7.74 E.006
G1 X-.649 Y7.539 E.01043
G1 X.786 Y7.683 E.05372
G1 X.937 Y7.74 E.006
G1 X1.131 Y7.539 E.01043
G1 X2.566 Y7.683 E.05372
G1 X2.717 Y7.74 E.006
G1 X2.911 Y7.539 E.01043
G1 X4.346 Y7.683 E.05372
G1 X4.497 Y7.74 E.006
G1 X4.691 Y7.539 E.01043
G1 X6.126 Y7.683 E.05372
G1 X6.277 Y7.74 E.006
G1 X6.471 Y7.539 E.01043
G1 X7.906 Y7.683 E.05372
G1 X8.057 Y7.74 E.006
G1 X8.251 Y7.539 E.01043
G1 X9.686 Y7.683 E.05372
G1 X9.837 Y7.74 E.006
G1 X10.031 Y7.539 E.01043
G1 X11.466 Y7.683 E.05372
G1 X11.617 Y7.74 E.006
G1 X11.811 Y7.539 E.01043
G1 X13.246 Y7.683 E.05372
G1 X13.397 Y7.74 E.006
G1 X13.591 Y7.539 E.01043
G1 X15.026 Y7.683 E.05372
G1 X15.177 Y7.74 E.006
G1 X15.371 Y7.539 E.01043
G1 X16.806 Y7.683 E.05372
G1 X16.957 Y7.74 E.006
G1 X17.151 Y7.539 E.01043
G1 X18.586 Y7.683 E.05373
G1 X18.737 Y7.74 E.006
G1 X18.931 Y7.539 E.01043
G1 X20.366 Y7.683 E.05372
G1 X20.517 Y7.74 E.006
G1 X20.711 Y7.539 E.01043
G1 X22.167 Y7.685 E.05451
G1 X22.81 Y7.64 E.02402
G1 X22.812 Y6.033 E.05984
G1 X22.854 Y5.953 E.00338
G1 X22.809 Y5.87 E.00351
G1 X22.811 Y4.154 E.06392
G1 X22.853 Y4.073 E.00338
G1 X22.808 Y3.99 E.0035
G1 X22.81 Y2.274 E.06392
G1 X22.852 Y2.193 E.00339
G1 X22.807 Y2.11 E.00349
G1 X22.809 Y.394 E.06392
G1 X22.851 Y.312 E.0034
G1 X22.806 Y.23 E.00348
G1 X22.805 Y-7.126 E.27398
G1 X22.908 Y-7.328 E.00843
G1 X22.731 Y-7.659 E.014
G1 X22.264 Y-7.626 E.01745
G1 X21.695 Y-7.647 E.02118
G1 X21.256 Y-7.71 E.01652
G1 X21.161 Y-7.674 E.00378
G1 X23.038 Y-11.528 F30000
G1 F3000
G1 X23.347 Y-11.491 E.01159
G1 X23.653 Y-11.431 E.01159
G1 X23.952 Y-11.346 E.01159
G1 X24.244 Y-11.238 E.01159
G1 X24.527 Y-11.108 E.01159
G1 X24.799 Y-10.956 E.01159
G1 X25.057 Y-10.783 E.01159
G1 X25.302 Y-10.59 E.01159
G1 X25.53 Y-10.379 E.01159
G1 X25.742 Y-10.15 E.01159
G1 X25.934 Y-9.906 E.01159
G1 X26.107 Y-9.647 E.01159
G1 X26.259 Y-9.376 E.01159
G1 X26.39 Y-9.093 E.01159
G1 X26.498 Y-8.801 E.01159
G1 X26.582 Y-8.501 E.01159
G1 X26.643 Y-8.196 E.01159
G1 X26.679 Y-7.887 E.01159
G1 X26.692 Y-7.567 E.01192
G1 X26.692 Y7.567 E.56368
G1 X26.679 Y7.887 E.01192
G1 X26.643 Y8.196 E.01159
G1 X26.582 Y8.501 E.01159
G1 X26.498 Y8.801 E.01159
G1 X26.39 Y9.093 E.01159
G1 X26.259 Y9.376 E.01159
G1 X26.107 Y9.647 E.01159
G1 X25.934 Y9.906 E.01159
G1 X25.742 Y10.15 E.01159
G1 X25.53 Y10.379 E.01159
G1 X25.302 Y10.59 E.01159
G1 X25.057 Y10.783 E.01159
G1 X24.799 Y10.956 E.01159
G1 X24.527 Y11.108 E.01159
G1 X24.244 Y11.238 E.01159
G1 X23.952 Y11.346 E.01159
G1 X23.653 Y11.431 E.01159
G1 X23.347 Y11.491 E.01159
G1 X23.038 Y11.528 E.01159
G1 X22.718 Y11.54 E.01192
G1 X-22.718 Y11.54 E1.69235
G1 X-23.038 Y11.528 E.01192
M73 P0 R78
G1 X-23.347 Y11.491 E.01159
G1 X-23.653 Y11.431 E.01159
G1 X-23.952 Y11.346 E.01159
G1 X-24.244 Y11.238 E.01159
G1 X-24.527 Y11.108 E.01159
G1 X-24.799 Y10.956 E.01159
G1 X-25.057 Y10.783 E.01159
G1 X-25.302 Y10.59 E.01159
G1 X-25.53 Y10.379 E.01159
G1 X-25.742 Y10.15 E.01159
G1 X-25.934 Y9.906 E.0116
G1 X-26.107 Y9.647 E.01159
G1 X-26.259 Y9.376 E.01159
G1 X-26.39 Y9.093 E.01159
G1 X-26.498 Y8.801 E.01159
G1 X-26.582 Y8.501 E.01159
G1 X-26.643 Y8.196 E.01159
G1 X-26.679 Y7.887 E.01159
G1 X-26.692 Y7.567 E.01192
G1 X-26.692 Y-7.567 E.56368
G1 X-26.679 Y-7.887 E.01192
G1 X-26.643 Y-8.196 E.01159
G1 X-26.582 Y-8.501 E.01159
G1 X-26.498 Y-8.801 E.01159
G1 X-26.39 Y-9.093 E.01159
G1 X-26.259 Y-9.376 E.01159
G1 X-26.107 Y-9.647 E.01159
G1 X-25.934 Y-9.906 E.01159
G1 X-25.742 Y-10.15 E.01159
G1 X-25.53 Y-10.379 E.01159
G1 X-25.302 Y-10.59 E.01159
G1 X-25.057 Y-10.783 E.01159
G1 X-24.799 Y-10.956 E.01159
G1 X-24.527 Y-11.108 E.01159
G1 X-24.244 Y-11.238 E.0116
G1 X-23.952 Y-11.346 E.01159
G1 X-23.653 Y-11.431 E.01159
G1 X-23.347 Y-11.491 E.01159
G1 X-23.038 Y-11.528 E.01159
G1 X-22.718 Y-11.54 E.01192
G1 X22.97 Y-11.531 E1.70171
G1 X22.854 Y-11.329 F30000
G1 F3000
G1 X22.854 Y-8.081 E.121
G1 X22.346 Y-8.044 E.01897
G1 X22.346 Y-11.129 E.11491
G1 X21.838 Y-11.129 E.01892
G1 X21.838 Y-8.054 E.11455
G1 X21.33 Y-8.115 E.01905
G1 X21.33 Y-11.129 E.11226
G1 X20.823 Y-11.129 E.01892
G1 X20.823 Y-8.062 E.11422
G1 X20.477 Y-8.038 E.01291
G1 X20.315 Y-8.044 E.00604
G1 X20.315 Y-11.129 E.11492
G1 X19.807 Y-11.129 E.01892
G1 X19.807 Y-8.078 E.11362
G1 X19.43 Y-8.132 E.01418
G1 X19.299 Y-8.083 E.00521
G1 X19.299 Y-11.129 E.11346
G1 X18.791 Y-11.129 E.01892
G1 X18.791 Y-8.044 E.11489
G1 X18.697 Y-8.038 E.00352
G1 X18.283 Y-8.053 E.01541
G1 X18.283 Y-11.129 E.11456
G1 X17.775 Y-11.129 E.01892
G1 X17.775 Y-8.114 E.11228
G1 X17.65 Y-8.132 E.00472
G1 X17.512 Y-8.08 E.00549
G1 X17.267 Y-8.063 E.00913
G1 X17.267 Y-11.129 E.11421
G1 X16.76 Y-11.129 E.01892
G1 X16.76 Y-8.044 E.11492
G1 X16.252 Y-8.078 E.01896
G1 X16.252 Y-11.129 E.11365
G1 X15.744 Y-11.129 E.01892
G1 X15.744 Y-8.085 E.11339
G1 X15.236 Y-8.045 E.01897
G1 X15.236 Y-11.129 E.11488
G1 X14.728 Y-11.129 E.01892
G1 X14.728 Y-8.053 E.11457
G1 X14.22 Y-8.114 E.01905
G1 X14.22 Y-11.129 E.11231
G1 X13.712 Y-11.129 E.01892
G1 X13.712 Y-8.063 E.1142
G1 X13.357 Y-8.038 E.01328
G1 X13.205 Y-8.043 E.00567
G1 X13.205 Y-11.129 E.11493
G1 X12.697 Y-11.129 E.01892
G1 X12.697 Y-8.077 E.11368
G1 X12.31 Y-8.132 E.01455
G1 X12.189 Y-8.087 E.00482
G1 X12.189 Y-11.129 E.11332
G1 X11.681 Y-11.129 E.01892
G1 X11.681 Y-8.045 E.11487
G1 X11.577 Y-8.038 E.00389
G1 X11.173 Y-8.053 E.01504
G1 X11.173 Y-11.129 E.11457
G1 X10.665 Y-11.129 E.01892
G1 X10.665 Y-8.113 E.11234
G1 X10.53 Y-8.132 E.00509
G1 X10.392 Y-8.08 E.00549
G1 X10.157 Y-8.063 E.00877
G1 X10.157 Y-11.129 E.11418
G1 X9.649 Y-11.129 E.01892
G1 X9.649 Y-8.043 E.11494
G1 X9.142 Y-8.076 E.01896
G1 X9.142 Y-11.129 E.1137
G1 X8.634 Y-11.129 E.01892
G1 X8.634 Y-8.088 E.11325
G1 X8.495 Y-8.036 E.00551
G1 X8.126 Y-8.076 E.01384
G1 X8.126 Y-11.129 E.11371
G1 X7.618 Y-11.129 E.01892
G1 X7.618 Y-8.031 E.1154
G1 X7.11 Y-8.094 E.01906
G1 X7.11 Y-11.129 E.11306
G1 X6.602 Y-11.129 E.01892
G1 X6.602 Y-8.048 E.11475
G1 X6.094 Y-8.099 E.01901
G1 X6.094 Y-11.129 E.11287
G1 X5.587 Y-11.129 E.01892
G1 X5.587 Y-8.062 E.11424
G1 X5.148 Y-8.116 E.01648
G1 X5.079 Y-8.09 E.00274
G1 X5.079 Y-11.129 E.11318
G1 X4.571 Y-11.129 E.01892
G1 X4.571 Y-8.076 E.11373
G1 X4.324 Y-8.102 E.00923
G1 X4.114 Y-8.024 E.00838
G1 X4.063 Y-8.03 E.0019
G1 X4.063 Y-11.129 E.11543
G1 X3.555 Y-11.129 E.01892
G1 X3.555 Y-8.093 E.11308
G1 X3.292 Y-8.126 E.00986
G1 X3.172 Y-8.08 E.00479
G1 X3.047 Y-8.071 E.00466
G1 X3.047 Y-11.129 E.11389
G1 X2.539 Y-11.129 E.01892
G1 X2.539 Y-8.039 E.11509
G1 X2.031 Y-8.061 E.01893
G1 X2.031 Y-11.129 E.11429
G1 X1.524 Y-11.129 E.01892
G1 X1.524 Y-8.13 E.1117
G1 X1.392 Y-8.08 E.00524
G1 X1.016 Y-8.053 E.01405
G1 X1.016 Y-11.129 E.11456
G1 X.508 Y-11.129 E.01892
G1 X.508 Y-8.049 E.11474
G1 X.273 Y-8.058 E.00877
G1 X0 Y-8.097 E.01025
G1 X0 Y-11.129 E.11295
G1 X-.508 Y-11.129 E.01892
G1 X-.508 Y-8.072 E.11388
G1 X-.983 Y-8.038 E.01775
G1 X-1.016 Y-8.039 E.00121
G1 X-1.016 Y-11.129 E.1151
G1 X-1.524 Y-11.129 E.01892
G1 X-1.524 Y-8.06 E.11431
G1 X-2.031 Y-8.132 E.0191
G1 X-2.031 Y-11.129 E.11164
G1 X-2.539 Y-11.129 E.01892
G1 X-2.539 Y-8.054 E.11455
G1 X-2.763 Y-8.038 E.00836
G1 X-3.047 Y-8.048 E.01058
G1 X-3.047 Y-11.129 E.11474
G1 X-3.555 Y-11.129 E.01892
G1 X-3.555 Y-8.096 E.11298
G1 X-3.81 Y-8.132 E.0096
G1 X-4.063 Y-8.037 E.01007
G1 X-4.063 Y-11.129 E.11518
G1 X-4.571 Y-11.129 E.01892
G1 X-4.571 Y-8.091 E.11316
G1 X-4.676 Y-8.102 E.00393
G1 X-4.886 Y-8.024 E.00838
G1 X-5.079 Y-8.048 E.00722
G1 X-5.079 Y-11.129 E.11477
G1 X-5.587 Y-11.129 E.01892
G1 X-5.587 Y-8.111 E.11242
G1 X-5.632 Y-8.116 E.00172
G1 X-5.845 Y-8.036 E.00845
G1 X-6.094 Y-8.063 E.00936
G1 X-6.094 Y-11.129 E.11419
G1 X-6.602 Y-11.129 E.01892
G1 X-6.602 Y-8.048 E.11477
G1 X-6.666 Y-8.024 E.00255
G1 X-7.11 Y-8.079 E.01665
G1 X-7.11 Y-11.129 E.11361
G1 X-7.618 Y-11.129 E.01892
G1 X-7.618 Y-8.079 E.11359
G1 X-8.126 Y-8.043 E.01896
G1 X-8.126 Y-11.129 E.11494
G1 X-8.634 Y-11.129 E.01892
G1 X-8.634 Y-8.054 E.11453
G1 X-9.142 Y-8.117 E.01906
G1 X-9.142 Y-11.129 E.11219
G1 X-9.649 Y-11.129 E.01892
G1 X-9.649 Y-8.061 E.11426
G1 X-9.983 Y-8.038 E.01247
G1 X-10.157 Y-8.044 E.00649
G1 X-10.157 Y-11.129 E.1149
G1 X-10.665 Y-11.129 E.01892
G1 X-10.665 Y-8.08 E.11356
G1 X-11.03 Y-8.132 E.01373
G1 X-11.173 Y-8.08 E.00567
G1 X-11.173 Y-11.129 E.11357
G1 X-11.681 Y-11.129 E.01892
G1 X-11.681 Y-8.043 E.11493
G1 X-11.763 Y-8.038 E.00308
G1 X-12.189 Y-8.054 E.01586
G1 X-12.189 Y-11.129 E.11454
G1 X-12.697 Y-11.129 E.01892
G1 X-12.697 Y-8.116 E.11222
G1 X-12.81 Y-8.132 E.00427
G1 X-12.948 Y-8.08 E.00549
G1 X-13.205 Y-8.062 E.00958
G1 X-13.205 Y-11.129 E.11424
G1 X-13.712 Y-11.129 E.01892
G1 X-13.712 Y-8.044 E.11491
G1 X-14.22 Y-8.079 E.01896
G1 X-14.22 Y-11.129 E.11359
G1 X-14.728 Y-11.129 E.01892
G1 X-14.728 Y-8.08 E.11356
G1 X-15.236 Y-8.044 E.01896
G1 X-15.236 Y-11.129 E.11491
G1 X-15.744 Y-11.129 E.01892
G1 X-15.744 Y-8.054 E.11455
G1 X-16.252 Y-8.115 E.01906
G1 X-16.252 Y-11.129 E.11225
G1 X-16.76 Y-11.129 E.01892
G1 X-16.76 Y-8.062 E.11423
G1 X-17.103 Y-8.038 E.01283
G1 X-17.267 Y-8.044 E.00612
G1 X-17.267 Y-11.129 E.11491
G1 X-17.775 Y-11.129 E.01892
G1 X-17.775 Y-8.079 E.11361
G1 X-18.15 Y-8.132 E.0141
G1 X-18.283 Y-8.082 E.0053
G1 X-18.283 Y-11.129 E.11349
G1 X-18.791 Y-11.129 E.01892
G1 X-18.791 Y-8.044 E.1149
G1 X-18.883 Y-8.038 E.00344
G1 X-19.299 Y-8.053 E.01549
G1 X-19.299 Y-11.129 E.11456
G1 X-19.807 Y-11.129 E.01892
G1 X-19.807 Y-8.115 E.11227
G1 X-19.93 Y-8.132 E.00464
G1 X-20.068 Y-8.08 E.00549
G1 X-20.315 Y-8.063 E.00921
G1 X-20.315 Y-11.129 E.11422
G1 X-20.823 Y-11.129 E.01892
G1 X-20.823 Y-8.044 E.11492
G1 X-21.33 Y-8.078 E.01896
G1 X-21.33 Y-11.129 E.11364
G1 X-21.838 Y-11.129 E.01892
G1 X-21.838 Y-8.084 E.11342
G1 X-21.94 Y-8.045 E.00403
G1 X-22.346 Y-8.074 E.01518
G1 X-22.346 Y-11.129 E.11379
G1 X-22.854 Y-11.123 E.01892
G1 X-22.854 Y-7.976 E.11722
G1 X-23.333 Y-7.798 E.01903
G1 X-23.151 Y-7.088 E.02733
G1 X-23.288 Y-6.551 E.02062
G1 X-23.159 Y-6.049 E.01933
G1 X-23.25 Y-5.693 E.01366
G1 X-23.152 Y-5.306 E.01488
G1 X-23.288 Y-4.771 E.02054
G1 X-23.159 Y-4.269 E.01933
G1 X-23.25 Y-3.913 E.01366
G1 X-23.152 Y-3.526 E.01488
G1 X-23.288 Y-2.991 E.02054
G1 X-23.159 Y-2.489 E.01933
G1 X-23.25 Y-2.133 E.01366
G1 X-23.152 Y-1.746 E.01488
G1 X-23.288 Y-1.211 E.02054
G1 X-23.159 Y-.709 E.01933
G1 X-23.25 Y-.353 E.01366
G1 X-23.152 Y.034 E.01488
G1 X-23.288 Y.569 E.02054
G1 X-23.159 Y1.071 E.01933
