; HEADER_BLOCK_START
; generated by OrcaSlicer 2.3.1 on 2026-03-06 at 17:07:52
; total layer number: 25
; filament_density: 1.27
; filament_diameter: 1.75
; max_z_height: 5.00
; HEADER_BLOCK_END

; THUMBNAIL_BLOCK_START

;
; THUMBNAIL_BLOCK_END

; external perimeters extrusion width = 0.42mm
; perimeters extrusion width = 0.45mm
; infill extrusion width = 0.45mm
; solid infill extrusion width = 0.42mm
; top infill extrusion width = 0.42mm
; support material extrusion width = 0.42mm
; first layer extrusion width = 0.50mm

; EXECUTABLE_BLOCK_START
M73 P0 R21
M106 S0
M106 P2 S0
;TYPE:Custom
M190 S80
M104 S245
G90
M83
G1 Z5 F6000
G1 E-0.2 F800
G1 X110 Y-110 F6000
G1 E2 F800
G1 Y-110 X55 Z0.25 F4800
G1 X-55 E8 F2400
G1 Y-109.6 F2400
G1 X55 E5 F2400
G1 Y-110 X55 Z0.45 F4800
G1 X-55 E8 F2400
G1 Y-109.6 F2400
G1 X55 E5 F2400
G92 E0
G90
G21
M83 ; use relative distances for extrusion
; Filament gcode
M106 S0
M106 P2 S0
;LAYER_CHANGE
;Z:0.2
;HEIGHT:0.2
;BEFORE_LAYER_CHANGE
;0.2
G1 E-.8 F2100
M73 P1 R21
;AFTER_LAYER_CHANGE
;0.2
;_SET_FAN_SPEED_CHANGING_LAYER
SET_VELOCITY_LIMIT ACCEL=500
G1 X-12.697 Y-2.977 F30000
G1 Z.6
G1 Z.2
G1 E.8 F2100
;TYPE:Support
;WIDTH:0.5
G1 F3000
G1 X-12.697 Y-6.032 E.11378
G1 X-18.791 Y-1.365 F30000
G1 F3000
G1 X-18.791 Y1.159 E.09399
G1 X-18.344 Y1.159 E.01664
G1 X-18.283 Y1.214 E.00306
G1 X-18.283 Y-1.214 E.09042
G1 X-17.853 Y-1.601 E.02157
G1 X-17.785 Y-2.247 E.02417
G1 X-17.775 Y-2.312 E.00246
G1 X-17.775 Y2.312 E.17224
G1 X-17.675 Y2.99 E.02551
G1 X-17.535 Y3.727 E.02796
G1 X-17.363 Y4.458 E.02797
G1 X-17.267 Y4.801 E.01325
G1 X-17.267 Y-4.801 E.35762
G1 X-17.161 Y-5.181 E.01471
G1 X-16.929 Y-5.895 E.02797
G1 X-16.76 Y-6.351 E.01812
G1 X-16.76 Y6.351 E.47313
G1 X-16.667 Y6.599 E.00984
G1 X-16.377 Y7.291 E.02796
G1 X-16.252 Y7.556 E.01092
G1 X-16.252 Y-7.556 E.5629
G1 X-16.057 Y-7.971 E.01705
G1 X-15.744 Y-8.569 E.02516
G1 X-15.744 Y8.987 E.65391
G1 X-14.22 Y11.249 F30000
G1 F3000
G1 X-14.22 Y2.219 E.33636
G1 X-14.235 Y2.118 E.00378
G1 X-14.571 Y1.405 E.02937
G1 X-14.728 Y1.23 E.00876
G1 X-14.728 Y10.212 E.33457
G1 X-14.931 Y9.92 E.01326
G1 X-15.236 Y9.44 E.02118
G1 X-15.236 Y-9.44 E.70321
G1 X-14.931 Y-9.92 E.02118
G1 X-14.728 Y-10.212 E.01326
G1 X-14.728 Y-.501 E.36172
G1 X-14.689 Y-.544 E.00216
G1 X-14.354 Y-1.258 E.02937
G1 X-14.265 Y-1.844 E.0221
G1 X-14.22 Y-1.874 E.00201
G1 X-14.22 Y-10.909 E.33652
G1 X-14.049 Y-11.135 E.01056
G1 X-13.712 Y-11.541 E.01966
G1 X-13.712 Y-2.207 E.34769
G1 X-13.38 Y-2.424 E.01479
G1 X-13.205 Y-2.646 E.01054
G1 X-13.205 Y-12.119 E.35286
G1 X-13.068 Y-12.271 E.00761
G1 X-12.697 Y-12.65 E.01975
G1 X-12.697 Y-7.471 E.1929
G1 X-12.195 Y-7.794 E.0222
G1 X-12.189 Y-7.801 E.00036
G1 X-12.189 Y-13.14 E.19886
G1 X-11.995 Y-13.322 E.0099
G1 X-11.681 Y-13.593 E.01546
G1 X-11.681 Y-8.365 E.19471
G1 X-11.678 Y-8.368 E.00014
G1 X-11.342 Y-9.084 E.02945
G1 X-11.23 Y-9.845 E.02866
G1 X-11.173 Y-9.86 E.00218
G1 X-11.173 Y-14.013 E.15471
G1 X-10.838 Y-14.279 E.01591
G1 X-10.665 Y-14.405 E.00797
G1 X-10.665 Y-9.991 E.1644
G1 X-10.579 Y-10.013 E.0033
G1 X-10.208 Y-10.227 E.01598
G1 X-10.157 Y-10.26 E.00224
G1 X-10.157 Y-14.769 E.16795
G1 X-9.649 Y-15.106 E.02271
G1 X-9.649 Y-10.693 E.16438
G1 X-9.361 Y-11.014 E.01609
G1 X-9.142 Y-11.48 E.01918
G1 X-9.142 Y-15.417 E.14661
G1 X-8.963 Y-15.525 E.00777
G1 X-8.634 Y-15.706 E.014
G1 X-8.634 Y-11.675 E.15013
G1 X-8.341 Y-11.761 E.01137
G1 X-8.126 Y-11.891 E.00936
G1 X-8.126 Y-15.975 E.15211
G1 X-7.633 Y-16.22 E.02051
G1 X-7.618 Y-16.227 E.0006
G1 X-7.618 Y-12.233 E.14875
G1 X-7.297 Y-12.591 E.01791
G1 X-7.11 Y-12.633 E.00712
G1 X-7.11 Y-16.453 E.14227
G1 X-6.97 Y-16.515 E.0057
G1 X-6.602 Y-16.661 E.01475
G1 X-6.602 Y-12.771 E.1449
G1 X-6.559 Y-12.784 E.00169
G1 X-6.094 Y-13.066 E.02023
G1 X-6.094 Y-16.856 E.14116
G1 X-5.587 Y-17.033 E.02003
G1 X-5.587 Y-13.533 E.13033
G1 X-5.079 Y-14.098 E.02829
G1 X-5.079 Y-17.188 E.11509
G1 X-4.821 Y-17.266 E.01003
G1 X-4.571 Y-17.33 E.00961
G1 X-4.571 Y-13.948 E.12596
G1 X-4.549 Y-13.941 E.00084
G1 X-4.112 Y-13.908 E.01634
G1 X-4.063 Y-13.908 E.00182
G1 X-4.063 Y-17.459 E.13226
G1 X-3.555 Y-17.567 E.01934
G1 X-3.555 Y-13.948 E.13479
G1 X-3.047 Y-14.079 E.01954
G1 X-3.047 Y-17.662 E.13342
G1 X-2.619 Y-17.734 E.01619
G1 X-2.539 Y-17.744 E.00298
G1 X-2.539 Y-14.361 E.12599
G1 X-2.346 Y-14.479 E.00843
G1 X-2.031 Y-14.37 E.01239
G1 X-2.031 Y-17.808 E.12806
G1 X-1.899 Y-17.825 E.00496
G1 X-1.524 Y-17.857 E.01405
G1 X-1.524 Y-14.331 E.13135
G1 X-1.18 Y-14.317 E.01282
G1 X-1.016 Y-14.359 E.00631
G1 X-1.016 Y-17.896 E.13172
G1 X-.508 Y-17.917 E.01893
G1 X-.508 Y-14.49 E.12762
G1 X-.429 Y-14.511 E.00303
G1 X-.06 Y-14.724 E.01588
G1 X0 Y-14.762 E.00266
G1 X0 Y-17.922 E.1177
G1 X.375 Y-17.922 E.01398
G1 X.508 Y-17.917 E.00494
G1 X.508 Y-14.809 E.11574
G1 X.957 Y-14.521 E.01988
G1 X1.016 Y-14.5 E.00232
G1 X1.016 Y-17.896 E.12645
G1 X1.126 Y-17.891 E.0041
G1 X1.524 Y-17.858 E.01488
G1 X1.524 Y-14.325 E.13159
G1 X1.668 Y-14.274 E.00569
G1 X2.031 Y-14.26 E.01355
G1 X2.031 Y-17.808 E.13217
G1 X2.539 Y-17.744 E.01907
G1 X2.539 Y-14.263 E.12964
G1 X3.047 Y-14.394 E.01954
G1 X3.047 Y-17.662 E.12169
G1 X3.359 Y-17.609 E.01178
G1 X3.555 Y-17.567 E.00746
G1 X3.555 Y-14.485 E.11481
G1 X3.785 Y-14.183 E.01412
G1 X4.063 Y-13.962 E.01325
G1 X4.063 Y-17.459 E.13027
G1 X4.093 Y-17.453 E.00116
G1 X4.571 Y-17.33 E.01836
G1 X4.571 Y-13.651 E.13704
G1 X5.079 Y-13.475 E.02002
M73 P2 R21
G1 X5.079 Y-17.188 E.1383
G1 X5.54 Y-17.049 E.01793
G1 X5.587 Y-17.033 E.00185
G1 X5.587 Y-13.42 E.13456
G1 X5.981 Y-13.404 E.01469
G1 X6.094 Y-13.433 E.00438
G1 X6.094 Y-16.856 E.12747
G1 X6.249 Y-16.802 E.00608
G1 X6.602 Y-16.662 E.01417
G1 X6.602 Y-13.132 E.13148
G1 X6.941 Y-12.688 E.02079
G1 X7.11 Y-12.553 E.00808
G1 X7.11 Y-16.453 E.14526
G1 X7.618 Y-16.227 E.02071
G1 X7.618 Y-12.199 E.15003
G1 X7.636 Y-12.187 E.00078
G1 X8.126 Y-12.017 E.01933
G1 X8.126 Y-15.975 E.14742
G1 X8.305 Y-15.886 E.00746
G1 X8.634 Y-15.706 E.01396
G1 X8.634 Y-11.929 E.14066
G1 X9.099 Y-11.91 E.01735
G1 X9.142 Y-11.772 E.00538
G1 X9.142 Y-15.417 E.13573
G1 X9.605 Y-15.136 E.0202
G1 X9.649 Y-15.106 E.00197
G1 X9.649 Y-10.733 E.16291
G1 X9.86 Y-10.456 E.01296
G1 X10.157 Y-10.219 E.01414
G1 X10.157 Y-14.769 E.16947
G1 X10.231 Y-14.72 E.00328
G1 X10.665 Y-14.405 E.02
G1 X10.665 Y-9.917 E.16715
G1 X11.173 Y-9.741 E.02002
G1 X11.173 Y-14.013 E.15914
G1 X11.427 Y-13.812 E.01205
G1 X11.681 Y-13.593 E.01251
G1 X11.681 Y-8.399 E.19345
G1 X12.085 Y-7.869 E.02485
G1 X12.189 Y-7.786 E.00493
G1 X12.189 Y-13.139 E.19938
G1 X12.56 Y-12.789 E.01902
G1 X12.697 Y-12.65 E.00725
G1 X12.697 Y-7.422 E.19475
G1 X13.017 Y-7.216 E.0142
G1 X13.017 Y-6.499 E.0267
G1 X13.071 Y-6.123 E.01413
G1 X13.191 Y-5.735 E.01513
G1 X13.205 Y-5.704 E.00125
G1 X13.205 Y-12.119 E.23894
G1 X13.57 Y-11.713 E.02035
G1 X13.712 Y-11.541 E.00831
G1 X13.712 Y-4.591 E.25887
G1 X14.22 Y-1.843 F30000
G1 F3000
G1 X14.22 Y-10.909 E.33767
G1 X14.503 Y-10.537 E.0174
G1 X14.728 Y-10.212 E.01471
G1 X14.728 Y-1.492 E.3248
G1 X14.856 Y-1.325 E.00783
G1 X15.206 Y-1.045 E.0167
G1 X15.236 Y-1.026 E.00132
G1 X15.236 Y-9.44 E.31338
G1 X15.334 Y-9.286 E.00678
G1 X15.709 Y-8.637 E.02794
G1 X15.744 Y-8.569 E.00284
G1 X15.744 Y8.569 E.63834
G1 X16.057 Y7.971 E.02516
G1 X16.252 Y7.556 E.01705
G1 X16.252 Y-7.556 E.5629
G1 X16.377 Y-7.291 E.01092
G1 X16.667 Y-6.599 E.02797
G1 X16.76 Y-6.351 E.00984
G1 X16.76 Y6.351 E.47313
G1 X16.929 Y5.895 E.01812
G1 X17.161 Y5.181 E.02797
G1 X17.267 Y4.801 E.01471
G1 X17.267 Y-4.801 E.35762
G1 X17.363 Y-4.458 E.01325
G1 X17.535 Y-3.727 E.02797
G1 X17.675 Y-2.99 E.02797
G1 X17.775 Y-2.312 E.0255
G1 X17.775 Y2.312 E.17224
G1 X17.785 Y2.247 E.00246
G1 X17.853 Y1.601 E.02417
G1 X18.283 Y1.214 E.02157
G1 X18.283 Y-1.214 E.09042
G1 X18.344 Y-1.159 E.00306
G1 X18.791 Y-1.159 E.01664
G1 X18.791 Y1.365 E.09399
G1 X14.22 Y1.861 F30000
G1 F3000
G1 X14.22 Y10.909 E.337
G1 X14.503 Y10.537 E.0174
G1 X14.728 Y10.212 E.01471
G1 X14.728 Y1.508 E.32421
G1 X14.904 Y1.305 E.00998
G1 X15.236 Y1.065 E.01528
G1 X15.236 Y9.824 E.32624
G1 X13.712 Y11.863 F30000
G1 F3000
G1 X13.712 Y5.142 E.25032
G1 X13.65 Y5.187 E.00286
G1 X13.38 Y5.5 E.0154
G1 X13.205 Y5.756 E.01157
G1 X13.205 Y12.119 E.23701
G1 X13.068 Y12.271 E.00761
G1 X12.697 Y12.65 E.01975
G1 X12.697 Y7.409 E.19521
G1 X12.189 Y7.777 E.02335
G1 X12.189 Y13.14 E.19976
G1 X11.995 Y13.322 E.0099
G1 X11.681 Y13.593 E.01546
G1 X11.681 Y8.345 E.19547
G1 X11.645 Y8.387 E.00205
G1 X11.27 Y8.338 E.01407
G1 X11.173 Y8.359 E.00371
G1 X11.173 Y14.013 E.21062
G1 X10.838 Y14.279 E.01591
G1 X10.665 Y14.405 E.00797
G1 X10.665 Y8.467 E.22116
G1 X10.438 Y8.515 E.00864
G1 X10.157 Y8.662 E.0118
G1 X10.157 Y14.769 E.22747
G1 X9.649 Y15.106 E.02271
G1 X9.649 Y8.987 E.22791
G1 X9.259 Y9.335 E.01947
G1 X9.142 Y9.512 E.00792
G1 X9.142 Y15.416 E.21991
G1 X8.963 Y15.525 E.0078
G1 X8.634 Y15.706 E.01398
G1 X8.634 Y10.588 E.19061
G1 X8.578 Y10.757 E.0066
G1 X8.604 Y11.739 E.03661
G1 X8.126 Y11.905 E.01885
G1 X8.126 Y15.975 E.15161
G1 X7.633 Y16.22 E.02051
G1 X7.618 Y16.227 E.0006
G1 X7.618 Y12.229 E.14892
G1 X7.404 Y12.383 E.00982
G1 X7.11 Y12.723 E.01673
G1 X7.11 Y16.453 E.13893
G1 X6.947 Y16.526 E.00666
G1 X6.602 Y16.662 E.0138
G1 X6.602 Y12.906 E.13989
G1 X6.493 Y12.911 E.00409
G1 X6.094 Y13.049 E.0157
G1 X6.094 Y16.856 E.1418
G1 X5.587 Y17.033 E.02003
G1 X5.587 Y13.285 E.13959
G1 X5.106 Y13.633 E.0221
G1 X5.079 Y13.668 E.00167
G1 X5.079 Y17.188 E.13108
G1 X4.82 Y17.266 E.01006
G1 X4.571 Y17.33 E.00959
G1 X4.571 Y13.848 E.1297
G1 X4.535 Y13.84 E.00135
G1 X4.063 Y13.859 E.01761
G1 X4.063 Y17.459 E.13409
G1 X3.555 Y17.567 E.01934
G1 X3.555 Y13.944 E.13495
G1 X3.047 Y14.12 E.02002
G1 X3.047 Y17.662 E.13192
G1 X2.619 Y17.734 E.01619
G1 X2.539 Y17.744 E.00298
G1 X2.539 Y14.476 E.12171
G1 X2.326 Y14.631 E.00982
G1 X2.031 Y14.545 E.01142
G1 X2.031 Y17.808 E.12156
G1 X1.899 Y17.825 E.00496
G1 X1.524 Y17.857 E.01405
G1 X1.524 Y14.408 E.12847
G1 X1.288 Y14.354 E.009
G1 X1.016 Y14.365 E.01015
G1 X1.016 Y17.896 E.1315
G1 X.508 Y17.917 E.01893
G1 X.508 Y14.389 E.13142
G1 X0 Y14.564 E.02002
G1 X0 Y17.922 E.12507
G1 X-.375 Y17.922 E.01398
G1 X-.508 Y17.917 E.00494
M73 P3 R21
G1 X-.508 Y14.846 E.11439
G1 X-.672 Y14.964 E.00755
G1 X-1.016 Y14.756 E.01497
G1 X-1.016 Y17.896 E.11694
G1 X-1.126 Y17.891 E.0041
G1 X-1.524 Y17.858 E.01488
G1 X-1.524 Y14.448 E.127
G1 X-1.648 Y14.373 E.0054
G1 X-2.028 Y14.261 E.01479
G1 X-2.031 Y14.26 E.00012
G1 X-2.031 Y17.808 E.13216
G1 X-2.539 Y17.744 E.01907
G1 X-2.539 Y14.168 E.1332
G1 X-3.047 Y14.188 E.01893
G1 X-3.047 Y17.662 E.12936
G1 X-3.359 Y17.609 E.01178
G1 X-3.555 Y17.567 E.00746
G1 X-3.555 Y14.311 E.12128
G1 X-3.86 Y14.416 E.01201
G1 X-4.063 Y14.19 E.01132
G1 X-4.063 Y17.459 E.12175
G1 X-4.093 Y17.453 E.00116
G1 X-4.571 Y17.33 E.01836
G1 X-4.571 Y13.737 E.13382
G1 X-5.006 Y13.473 E.01898
G1 X-5.079 Y13.452 E.00281
G1 X-5.079 Y17.188 E.13917
G1 X-5.54 Y17.049 E.01793
G1 X-5.587 Y17.033 E.00185
G1 X-5.587 Y13.316 E.13844
G1 X-5.81 Y13.265 E.00854
G1 X-6.094 Y13.276 E.0106
G1 X-6.094 Y16.856 E.13333
G1 X-6.249 Y16.802 E.00608
G1 X-6.602 Y16.662 E.01417
G1 X-6.602 Y13.297 E.12534
G1 X-6.746 Y13.303 E.00537
G1 X-6.94 Y12.89 E.01696
G1 X-7.11 Y12.701 E.00947
G1 X-7.11 Y16.453 E.13973
G1 X-7.618 Y16.227 E.02071
G1 X-7.618 Y12.212 E.14953
G1 X-8.125 Y11.904 E.02209
G1 X-8.126 Y11.904 E.00003
G1 X-8.126 Y15.975 E.15164
G1 X-8.305 Y15.886 E.00746
G1 X-8.634 Y15.706 E.01396
G1 X-8.634 Y11.763 E.14684
G1 X-9.142 Y11.647 E.0194
G1 X-9.142 Y15.417 E.14039
G1 X-9.605 Y15.136 E.0202
G1 X-9.649 Y15.106 E.00197
G1 X-9.649 Y10.898 E.15676
G1 X-9.786 Y10.607 E.01197
G1 X-10.157 Y10.194 E.02067
G1 X-10.157 Y14.769 E.17039
G1 X-10.231 Y14.72 E.00328
G1 X-10.665 Y14.405 E.02
G1 X-10.665 Y9.807 E.17126
G1 X-11.034 Y9.583 E.01606
G1 X-11.173 Y9.287 E.01219
G1 X-11.173 Y14.013 E.17606
G1 X-11.427 Y13.812 E.01205
G1 X-11.681 Y13.593 E.01251
G1 X-11.681 Y8.423 E.19256
G1 X-11.996 Y8.073 E.01753
G1 X-12.189 Y7.956 E.00841
G1 X-12.189 Y13.139 E.19307
G1 X-12.56 Y12.789 E.01902
G1 X-12.697 Y12.65 E.00725
G1 X-12.697 Y6.791 E.21823
G1 X-12.889 Y6.381 E.01688
G1 X-13.145 Y6.086 E.01453
G1 X-13.205 Y6.022 E.00326
G1 X-13.205 Y12.119 E.22711
G1 X-13.57 Y11.713 E.02035
G1 X-13.712 Y11.541 E.00831
G1 X-13.712 Y3.953 E.28266
G1 E-.8 F2100
;WIPE_START
G1 F3000
G1 X-13.712 Y5.953
;WIPE_END
G1 X-9.419 Y-.357 Z.6 F30000
G1 X.095 Y-14.338 Z.6
G1 Z.2
G1 E.8 F2100
G1 F3000
G1 X-.272 Y-14.126 E.01577
G1 X-1.135 Y-13.903 E.03322
M73 P3 R20
G1 X-2.046 Y-13.94 E.03395
G1 X-2.298 Y-14.027 E.00991
G1 X-2.811 Y-13.715 E.02235
G1 X-3.659 Y-13.497 E.03261
G1 X-4.127 Y-13.497 E.01746
G1 X-4.633 Y-13.535 E.01891
G1 X-4.937 Y-13.64 E.01198
G1 X-5.637 Y-12.862 E.03897
G1 X-6.391 Y-12.404 E.03286
G1 X-6.836 Y-12.274 E.01726
G1 X-7.078 Y-12.219 E.00924
G1 X-7.419 Y-11.839 E.01901
G1 X-8.173 Y-11.381 E.03286
G1 X-8.618 Y-11.251 E.01726
G1 X-8.816 Y-11.206 E.00757
G1 X-9.014 Y-10.784 E.01734
G1 X-9.609 Y-10.123 E.03311
G1 X-9.994 Y-9.876 E.01706
G1 X-10.422 Y-9.628 E.01843
G1 X-10.863 Y-9.515 E.01693
G1 X-10.944 Y-8.964 E.02075
G1 X-11.332 Y-8.138 E.03397
G1 X-11.926 Y-7.477 E.03311
G1 X-12.373 Y-7.191 E.01976
G1 X-12.526 Y-6.152 E.03912
G1 X-12.175 Y-5.411 E.03052
G1 X-12.056 Y-4.475 E.03515
G1 X-12.195 Y-3.602 E.03291
G1 X-12.541 Y-2.821 E.03181
G1 X-13.099 Y-2.117 E.03349
G1 X-13.886 Y-1.601 E.03504
G1 X-13.956 Y-1.137 E.01748
G1 X-14.343 Y-.314 E.03386
G1 X-14.953 Y.364 E.03399
G1 X-14.224 Y1.175 E.04059
G1 X-13.838 Y1.998 E.03386
G1 X-13.767 Y2.468 E.01772
G1 X-13.704 Y2.906 E.01646
G1 X-13.798 Y3.545 E.02408
G1 X-13.544 Y3.828 E.01418
G1 X-13.156 Y4.653 E.03397
G1 X-13.012 Y5.624 E.03655
G1 X-12.839 Y5.812 E.00951
G1 X-12.541 Y6.155 E.01691
G1 X-12.16 Y6.965 E.03336
G1 X-12.075 Y7.544 E.02179
G1 X-11.73 Y7.753 E.01502
G1 X-11.121 Y8.431 E.03396
G1 X-10.714 Y9.296 E.03558
G1 X-10.05 Y9.699 E.02896
G1 X-9.44 Y10.377 E.03397
G1 X-9.029 Y11.251 E.03598
G1 X-8.402 Y11.394 E.02394
G1 X-7.958 Y11.525 E.01726
G1 X-7.203 Y11.982 E.03286
G1 X-6.594 Y12.66 E.03397
G1 X-6.49 Y12.88 E.00905
G1 X-5.772 Y12.851 E.02677
G1 X-5.283 Y12.963 E.01867
G1 X-4.839 Y13.093 E.01726
G1 X-4.085 Y13.551 E.03286
G1 X-3.736 Y13.938 E.0194
G1 X-3.299 Y13.787 E.01723
G1 X-2.413 Y13.751 E.03303
G1 X-1.925 Y13.862 E.01867
G1 X-1.48 Y13.993 E.01726
G1 X-.692 Y14.471 E.03433
G1 X-.421 Y14.275 E.01246
G1 X.44 Y13.977 E.03395
G1 X1.326 Y13.941 E.03303
G1 X1.815 Y14.052 E.01867
G1 X2.248 Y14.179 E.01682
G1 X2.826 Y13.761 E.02658
G1 X3.688 Y13.463 E.03395
G1 X4.574 Y13.427 E.03303
G1 X4.72 Y13.46 E.0056
G1 X4.816 Y13.335 E.00586
G1 X5.554 Y12.8 E.03395
G1 X6.415 Y12.502 E.03395
G1 X6.77 Y12.488 E.0132
G1 X7.125 Y12.078 E.02019
G1 X7.818 Y11.576 E.03187
G1 X8.185 Y11.449 E.01447
G1 X8.165 Y10.695 E.02808
G1 X8.466 Y9.788 E.03561
G1 X8.945 Y9.063 E.03238
G1 X9.578 Y8.5 E.03153
G1 X10.298 Y8.124 E.03024
G1 X11.254 Y7.921 E.03641
G1 X11.479 Y7.95 E.00846
G1 X11.868 Y7.501 E.02212
G1 X12.407 Y7.111 E.0248
G1 X12.407 Y6.919 E.00717
G1 X12.47 Y6.48 E.01652
G1 X12.607 Y6.036 E.01731
G1 X12.791 Y5.632 E.01652
G1 X13.053 Y5.248 E.01731
G1 X13.37 Y4.882 E.01806
G1 X13.896 Y4.501 E.02417
G1 X13.723 Y3.941 E.02185
G1 X13.66 Y3.502 E.01652
G1 X13.66 Y3.037 E.01731
G1 X13.723 Y2.598 E.01652
G1 X13.86 Y2.154 E.01731
G1 X14.045 Y1.751 E.01652
G1 X14.306 Y1.367 E.01731
G1 X14.624 Y1 E.01806
G1 X15.395 Y.442 E.03547
G1 X15.344 Y.084 E.01348
G1 X15.344 Y-.468 E.02055
G1 X14.966 Y-.711 E.01672
G1 X14.559 Y-1.035 E.01938
G1 X14.07 Y-1.677 E.03007
G1 X13.866 Y-2.123 E.01826
G1 X13.729 Y-2.567 E.01731
G1 X13.666 Y-3.006 E.01652
G1 X13.666 Y-3.471 E.01731
G1 X13.729 Y-3.91 E.01652
G1 X13.829 Y-4.235 E.01266
G1 X13.501 Y-4.497 E.01565
G1 X13.01 Y-5.14 E.03015
G1 X12.805 Y-5.588 E.01835
G1 X12.668 Y-6.033 E.01732
G1 X12.606 Y-6.47 E.01643
G1 X12.606 Y-6.991 E.01942
G1 X12.196 Y-7.254 E.01816
G1 X11.789 Y-7.579 E.01938
G1 X11.3 Y-8.221 E.03007
G1 X11.096 Y-8.667 E.01826
G1 X10.959 Y-9.111 E.01731
G1 X10.918 Y-9.394 E.01064
G1 X10.374 Y-9.582 E.02144
G1 X9.971 Y-9.841 E.01786
G1 X9.564 Y-10.166 E.01938
G1 X9.075 Y-10.808 E.03007
G1 X8.871 Y-11.254 E.01826
