; HEADER_BLOCK_START
; generated by OrcaSlicer 2.3.1 on 2026-01-14 at 13:20:59
; total layer number: 324
; filament_density: 1.04
; filament_diameter: 1.75
; max_z_height: 127.90
; HEADER_BLOCK_END

; THUMBNAIL_BLOCK_START

;
; THUMBNAIL_BLOCK_END

; external perimeters extrusion width = 0.82mm
; perimeters extrusion width = 0.85mm
; infill extrusion width = 0.85mm
; solid infill extrusion width = 0.82mm
; top infill extrusion width = 0.82mm
; support material extrusion width = 0.82mm
; first layer extrusion width = 0.85mm

; EXECUTABLE_BLOCK_START
M73 P0 R585
M106 S0
M106 P2 S0
;TYPE:Custom
M190 S110
M104 S250
G90
M83
G1 Z5 F6000
G1 E-1.5 F600
G1 E12 F800
G1 X85 Y110 Z0.3 F1200
G1 X-110 E30 F2400
G1 Y0 E8 F2400
G1 X-109.6 F2400
G1 Y110 E10 F2400
G92 E0
G90
G21
M83 ; use relative distances for extrusion
; filament start gcode
;right_extruder_material: ABS
HEAT_CHAMBER TARGET=110 SOAK=15
SET_PRESSURE_ADVANCE ADVANCE=0.04; Override pressure advance value
M106 S0
M106 P2 S0
;LAYER_CHANGE
;Z:0.3
;HEIGHT:0.3
;BEFORE_LAYER_CHANGE
;0.3
G1 E-1.5 F2100
;AFTER_LAYER_CHANGE
;0.3
;_SET_FAN_SPEED_CHANGING_LAYER
SET_VELOCITY_LIMIT ACCEL=500
G1 X-64.144 Y-88.838 F30000
G1 Z.3
G1 Z.3
G1 E1.5 F2100
;TYPE:Skirt
;WIDTH:0.85
G1 F3000
G1 X-64.144 Y-105.634 E1.61289
G1 X-63.753 Y-106.946 E.13146
G1 X-62.706 Y-107.828 E.13146
G1 X-61.751 Y-108.027 E.09362
G1 X61.751 Y-108.027 E11.8596
G1 X63.063 Y-107.635 E.13146
G1 X63.946 Y-106.588 E.13146
G1 X64.144 Y-105.634 E.09362
G1 X64.144 Y105.634 E20.28741
G1 X63.753 Y106.946 E.13146
G1 X62.706 Y107.828 E.13146
G1 X61.751 Y108.027 E.09362
G1 X-61.751 Y108.027 E11.8596
G1 X-63.063 Y107.635 E.13146
G1 X-63.946 Y106.588 E.13146
G1 X-64.144 Y105.634 E.09362
G1 X-64.144 Y-88.758 E18.66683
G1 E-1.5 F2100
;WIPE_START
G1 F3000
G1 X-64.144 Y-90.758
;WIPE_END
G1 X-55.866 Y-99.165 F30000
G1 E1.5 F2100
;TYPE:Support
G1 X-55.866 Y-101.658 E.23942
G1 X-55.554 Y-101.765 E.03174
G1 X-55.258 Y-101.784 E.02846
G1 X-54.993 Y-101.736 E.0258
G1 X-54.993 Y-99.106 E.25253
G1 X-55.213 Y-102.49 F30000
G1 F2100
G1 X-54.862 Y-102.434 E.03416
G1 X-54.527 Y-102.314 E.03416
G1 X-54.215 Y-102.127 E.03495
G1 X-54.038 Y-101.981 E.02199
G1 X-53.881 Y-101.814 E.022
G1 X-53.676 Y-101.514 E.03495
G1 X-53.535 Y-101.188 E.03416
G1 X-53.457 Y-100.84 E.03415
G1 X-53.446 Y-100.485 E.03416
G1 X-53.476 Y-100.25 E.02279
G1 X-53.535 Y-100.019 E.02289
G1 X-53.676 Y-99.693 E.03405
G1 X-53.876 Y-99.399 E.03415
G1 X-54.127 Y-99.148 E.03416
G1 X-54.422 Y-98.948 E.03416
G1 X-54.748 Y-98.806 E.03415
G1 X-55.095 Y-98.729 E.03416
G1 X-55.451 Y-98.718 E.03415
G1 X-55.802 Y-98.773 E.03416
G1 X-56.137 Y-98.894 E.03415
G1 X-56.442 Y-99.074 E.03405
G1 X-56.626 Y-99.226 E.02289
G1 X-56.788 Y-99.399 E.02279
G1 X-56.988 Y-99.693 E.03416
G1 X-57.129 Y-100.02 E.03415
G1 X-57.207 Y-100.367 E.03416
G1 X-57.218 Y-100.722 E.03415
G1 X-57.162 Y-101.074 E.03416
G1 X-57.042 Y-101.408 E.03416
G1 X-56.861 Y-101.714 E.03416
G1 X-56.619 Y-101.987 E.03495
G1 X-56.345 Y-102.199 E.03336
G1 X-56.028 Y-102.361 E.03416
G1 X-55.686 Y-102.46 E.03416
G1 X-55.331 Y-102.493 E.03424
G1 E-1.5
;WIPE_START
G1 X-55.686 Y-102.46
G1 X-56.028 Y-102.361
G1 X-56.345 Y-102.199
G1 X-56.619 Y-101.987
G1 X-56.861 Y-101.714
G1 X-56.973 Y-101.524
;WIPE_END
G1 X54.993 Y-99.106 F30000
G1 E1.5 F2100
G1 X54.993 Y-101.736 E.25253
G1 X55.265 Y-101.784 E.02647
G1 X55.554 Y-101.765 E.02778
G1 X55.866 Y-101.658 E.03175
G1 X55.866 Y-99.164 E.23945
G1 X55.451 Y-102.49 F30000
G1 F2100
G1 X55.802 Y-102.434 E.03415
G1 X56.144 Y-102.31 E.03495
G1 X56.443 Y-102.132 E.03336
G1 X56.71 Y-101.897 E.03416
G1 X56.928 Y-101.616 E.03416
G1 X57.089 Y-101.299 E.03416
G1 X57.188 Y-100.958 E.03415
G1 X57.218 Y-100.722 E.02279
G1 X57.218 Y-100.493 E.02199
G1 X57.164 Y-100.142 E.03415
G1 X57.042 Y-99.799 E.03495
G1 X56.861 Y-99.493 E.03416
G1 X56.626 Y-99.226 E.03416
G1 X56.345 Y-99.008 E.03415
G1 X56.028 Y-98.847 E.03416
G1 X55.802 Y-98.773 E.02279
G1 X55.569 Y-98.729 E.02279
G1 X55.213 Y-98.718 E.03415
G1 X54.862 Y-98.773 E.03416
G1 X54.527 Y-98.894 E.03415
G1 X54.222 Y-99.074 E.03405
G1 X54.038 Y-99.226 E.02289
G1 X53.876 Y-99.399 E.02279
G1 X53.676 Y-99.693 E.03415
G1 X53.535 Y-100.02 E.03416
G1 X53.457 Y-100.367 E.03415
G1 X53.446 Y-100.722 E.03416
G1 X53.502 Y-101.074 E.03416
G1 X53.622 Y-101.408 E.03416
G1 X53.803 Y-101.714 E.03415
G1 X54.045 Y-101.987 E.03495
G1 X54.319 Y-102.199 E.03336
G1 X54.636 Y-102.361 E.03416
G1 X54.978 Y-102.46 E.03416
G1 X55.333 Y-102.493 E.03424
G1 E-1.5
;WIPE_START
G1 X54.978 Y-102.46
G1 X54.636 Y-102.361
G1 X54.319 Y-102.199
G1 X54.045 Y-101.987
G1 X53.803 Y-101.714
G1 X53.691 Y-101.524
;WIPE_END
G1 X55.333 Y98.714 F30000
G1 E1.5 F2100
G1 X54.978 Y98.747 E.03424
G1 X54.636 Y98.847 E.03415
G1 X54.319 Y99.008 E.03416
G1 X54.038 Y99.226 E.03416
G1 X53.803 Y99.493 E.03416
G1 X53.622 Y99.799 E.03416
G1 X53.502 Y100.133 E.03405
G1 X53.457 Y100.367 E.02289
G1 X53.442 Y100.604 E.02279
G1 X53.476 Y100.958 E.03416
G1 X53.535 Y101.188 E.02279
G1 X53.622 Y101.408 E.02279
G1 X53.803 Y101.714 E.03416
G1 X54.038 Y101.981 E.03415
G1 X54.319 Y102.199 E.03416
G1 X54.636 Y102.361 E.03416
G1 X54.978 Y102.46 E.03416
G1 X55.332 Y102.493 E.03416
G1 X55.686 Y102.46 E.03416
G1 X56.028 Y102.361 E.03415
G1 X56.345 Y102.199 E.03416
G1 X56.626 Y101.981 E.03416
G1 X56.861 Y101.714 E.03415
G1 X57.042 Y101.408 E.03416
G1 X57.164 Y101.065 E.03495
G1 X57.218 Y100.714 E.03415
G1 X57.218 Y100.485 E.02199
G1 X57.188 Y100.25 E.02279
G1 X57.089 Y99.908 E.03416
G1 X56.928 Y99.591 E.03415
G1 X56.71 Y99.31 E.03415
G1 X56.443 Y99.075 E.03416
G1 X56.137 Y98.894 E.03416
G1 X55.802 Y98.773 E.03415
G1 X55.451 Y98.718 E.03416
G1 X55.866 Y102.043 F30000
G1 F2100
G1 X55.866 Y99.549 E.23945
G1 X55.554 Y99.442 E.03174
G1 X55.265 Y99.423 E.02779
G1 X54.993 Y99.471 E.02647
G1 X54.993 Y102.101 E.25253
G1 E-1.5
;WIPE_START
G1 X54.993 Y100.101
;WIPE_END
G1 X-54.993 Y102.101 F30000
G1 E1.5 F2100
G1 X-54.993 Y99.471 E.25253
G1 X-55.258 Y99.424 E.0258
G1 X-55.554 Y99.442 E.02846
G1 X-55.866 Y99.549 E.03174
G1 X-55.866 Y102.043 E.23945
G1 X-55.331 Y98.714 F30000
G1 F2100
G1 X-55.686 Y98.747 E.03424
G1 X-56.028 Y98.847 E.03415
G1 X-56.345 Y99.008 E.03416
G1 X-56.626 Y99.226 E.03416
G1 X-56.861 Y99.493 E.03415
G1 X-57.042 Y99.799 E.03416
G1 X-57.162 Y100.133 E.03405
G1 X-57.218 Y100.485 E.03426
G1 X-57.207 Y100.84 E.03416
G1 X-57.129 Y101.188 E.03416
G1 X-56.988 Y101.514 E.03415
G1 X-56.788 Y101.808 E.03416
G1 X-56.626 Y101.981 E.02279
G1 X-56.443 Y102.132 E.02279
G1 X-56.137 Y102.314 E.03416
G1 X-55.802 Y102.434 E.03415
G1 X-55.451 Y102.49 E.03416
G1 X-55.213 Y102.49 E.02278
G1 X-54.978 Y102.46 E.02279
G1 X-54.636 Y102.361 E.03415
M73 P0 R584
G1 X-54.319 Y102.199 E.03416
G1 X-54.038 Y101.981 E.03415
G1 X-53.803 Y101.714 E.03416
G1 X-53.622 Y101.408 E.03415
G1 X-53.5 Y101.065 E.03495
G1 X-53.446 Y100.722 E.03336
G1 X-53.457 Y100.367 E.03416
G1 X-53.535 Y100.02 E.03415
G1 X-53.676 Y99.693 E.03416
G1 X-53.881 Y99.393 E.03495
G1 X-54.038 Y99.226 E.02199
G1 X-54.221 Y99.075 E.02279
G1 X-54.527 Y98.894 E.03416
G1 X-54.862 Y98.773 E.03415
G1 X-55.213 Y98.718 E.03416
G1 E-1.5
;WIPE_START
G1 X-54.862 Y98.773
G1 X-54.527 Y98.894
G1 X-54.221 Y99.075
G1 X-54.038 Y99.226
G1 X-53.881 Y99.393
G1 X-53.676 Y99.693
G1 X-53.635 Y99.787
;WIPE_END
G1 X-49.477 Y95.081 F30000
G1 E1.5 F2100
;TYPE:Brim
G1 X-49.477 Y-95.081 E18.26063
G1 X49.477 Y-95.081 E9.50222
G1 X49.477 Y95.081 E18.26063
G1 X-49.397 Y95.081 E9.49453
G1 E-1.5
;WIPE_START
G1 X-49.398 Y93.081
;WIPE_END
G1 X-48.599 Y94.246 F30000
G1 E1.5 F2100
G1 X-48.691 Y94.059 E.02002
G1 X-48.691 Y-94.059 E18.06448
G1 X-48.642 Y-94.203 E.01455
G1 X-48.455 Y-94.295 E.02002
G1 X48.455 Y-94.295 E9.30607
G1 X48.599 Y-94.246 E.01455
G1 X48.691 Y-94.059 E.02002
G1 X48.691 Y94.059 E18.06448
G1 X48.642 Y94.203 E.01455
G1 X48.455 Y94.295 E.02002
G1 X-48.455 Y94.295 E9.30607
G1 X-48.523 Y94.272 E.00686
G1 E-1.5
;WIPE_START
G1 X-48.691 Y94.059
G1 X-48.691 Y92.33
;WIPE_END
G1 X-47.813 Y93.461 F30000
G1 E1.5 F2100
G1 X-47.906 Y93.274 E.02002
G1 X-47.906 Y-93.274 E17.9136
G1 X-47.857 Y-93.417 E.01455
G1 X-47.67 Y-93.509 E.02002
G1 X47.67 Y-93.509 E9.15519
G1 X47.813 Y-93.461 E.01455
G1 X47.906 Y-93.274 E.02002
G1 X47.906 Y93.274 E17.9136
G1 X47.857 Y93.417 E.01455
G1 X47.67 Y93.509 E.02002
G1 X-47.67 Y93.509 E9.15519
G1 X-47.738 Y93.486 E.00686
G1 E-1.5
;WIPE_START
G1 X-47.906 Y93.274
G1 X-47.906 Y91.545
;WIPE_END
G1 X-46.499 Y92.156 F30000
G1 E1.5 F2100
G1 X-46.65 Y92.015 E.01976
G1 X-46.787 Y91.837 E.02164
G1 X-46.924 Y91.584 E.02764
G1 X-47.079 Y91.087 E.04998
G1 X-47.12 Y90.73 E.0345
G1 X-47.12 Y-90.727 E17.42476
G1 X-47.039 Y-91.259 E.05164
G1 X-46.98 Y-91.454 E.0196
G1 X-46.887 Y-91.668 E.02237
G1 X-46.743 Y-91.897 E.02601
G1 X-46.55 Y-92.122 E.02843
G1 X-46.221 Y-92.4 E.0414
G1 X-46.023 Y-92.513 E.02186
G1 X-45.615 Y-92.655 E.04152
G1 X-45.123 Y-92.724 E.04769
G1 X45.123 Y-92.724 E8.66606
G1 X45.655 Y-92.643 E.05164
G1 X45.85 Y-92.584 E.0196
G1 X46.064 Y-92.491 E.02237
G1 X46.293 Y-92.347 E.02601
G1 X46.65 Y-92.015 E.04675
G1 X46.787 Y-91.837 E.02164
G1 X46.924 Y-91.584 E.02764
G1 X47.079 Y-91.087 E.04998
G1 X47.12 Y-90.73 E.0345
G1 X47.12 Y90.727 E17.42476
G1 X47.039 Y91.259 E.05164
M73 P0 R583
G1 X46.98 Y91.454 E.0196
G1 X46.887 Y91.668 E.02237
G1 X46.743 Y91.897 E.02601
G1 X46.412 Y92.254 E.04675
G1 X46.233 Y92.391 E.02164
G1 X45.98 Y92.528 E.02764
G1 X45.483 Y92.683 E.04998
G1 X45.126 Y92.724 E.0345
G1 X-45.123 Y92.724 E8.66635
G1 X-45.655 Y92.643 E.05164
G1 X-45.85 Y92.584 E.0196
G1 X-46.064 Y92.491 E.02237
G1 X-46.293 Y92.347 E.02601
G1 X-46.441 Y92.21 E.0193
G1 X-45.933 Y91.621 F30000
G1 F2100
G1 X-46.02 Y91.546 E.01095
G1 X-46.176 Y91.343 E.02461
G1 X-46.3 Y90.986 E.03633
G1 X-46.334 Y90.743 E.02352
G1 X-46.334 Y-90.745 E17.42776
G1 X-46.265 Y-91.129 E.03747
G1 X-46.159 Y-91.371 E.02538
G1 X-45.942 Y-91.623 E.03194
G1 X-45.734 Y-91.784 E.02524
G1 X-45.568 Y-91.851 E.01718
G1 X-45.388 Y-91.903 E.01799
G1 X-45.139 Y-91.938 E.02415
G1 X45.141 Y-91.938 E8.66935
G1 X45.525 Y-91.869 E.03747
G1 X45.767 Y-91.763 E.02538
G1 X46.02 Y-91.546 E.03194
G1 X46.176 Y-91.343 E.02461
G1 X46.3 Y-90.986 E.03633
G1 X46.334 Y-90.743 E.02352
G1 X46.334 Y90.745 E17.42776
G1 X46.265 Y91.129 E.03747
G1 X46.159 Y91.371 E.02538
G1 X45.942 Y91.623 E.03194
G1 X45.739 Y91.78 E.02461
G1 X45.382 Y91.904 E.03633
G1 X45.139 Y91.938 E.02352
G1 X-45.141 Y91.938 E8.66935
G1 X-45.525 Y91.869 E.03747
G1 X-45.767 Y91.763 E.02538
G1 X-45.872 Y91.673 E.01331
G1 X-45.346 Y91.103 F30000
G1 F2100
G1 X-45.489 Y90.968 E.01888
G1 X-45.549 Y90.76 E.02081
G1 X-45.549 Y-90.76 E17.43078
G1 X-45.499 Y-90.95 E.01888
G1 X-45.364 Y-91.093 E.01888
G1 X-45.156 Y-91.153 E.02081
G1 X45.156 Y-91.153 E8.67237
G1 X45.346 Y-91.103 E.01888
G1 X45.489 Y-90.968 E.01888
G1 X45.549 Y-90.76 E.02081
G1 X45.549 Y90.76 E17.43078
G1 X45.499 Y90.95 E.01888
G1 X45.364 Y91.093 E.01888
G1 X45.156 Y91.153 E.02081
G1 X-45.156 Y91.153 E8.67237
G1 X-45.269 Y91.123 E.0112
G1 E-1.5
;WIPE_START
G1 X-45.489 Y90.968
G1 X-45.549 Y90.76
G1 X-45.549 Y89.246
;WIPE_END
G1 X52.449 Y100.034 F30000
G1 E1.5 F2100
;TYPE:Outer wall
G1 X52.596 Y99.521 E.05125
G1 X52.848 Y99.027 E.05322
G1 X53.187 Y98.59 E.05317
G1 X53.603 Y98.224 E.05317
G1 X54.079 Y97.942 E.05317
G1 X54.601 Y97.754 E.05322
G1 X55.151 Y97.668 E.05345
G1 X55.517 Y97.669 E.03516
G1 X55.89 Y97.716 E.03609
G1 X56.415 Y97.868 E.05253
G1 X56.908 Y98.12 E.05317
G1 X57.346 Y98.459 E.05317
G1 X57.712 Y98.874 E.05317
G1 X57.994 Y99.351 E.05317
G1 X58.182 Y99.872 E.05317
G1 X58.268 Y100.419 E.05317
G1 X58.251 Y100.972 E.05317
G1 X58.13 Y101.513 E.05317
G1 X57.91 Y102.021 E.05317
G1 X57.603 Y102.473 E.05253
G1 X57.345 Y102.747 E.03611
G1 X57.055 Y102.987 E.03611
G1 X56.585 Y103.266 E.05253
G1 X56.064 Y103.453 E.05317
G1 X55.523 Y103.539 E.05253
G1 X55.147 Y103.539 E.03611
G1 X54.774 Y103.492 E.03611
G1 X54.249 Y103.339 E.05253
G1 X53.756 Y103.088 E.05317
G1 X53.318 Y102.748 E.05317
G1 X52.952 Y102.333 E.05317
G1 X52.67 Y101.856 E.05317
G1 X52.482 Y101.335 E.05317
G1 X52.397 Y100.795 E.05253
G1 X52.397 Y100.419 E.03609
G1 X52.435 Y100.113 E.02967
G1 E-1.5
;WIPE_START
G1 X52.596 Y99.521
G1 X52.848 Y99.027
G1 X53.187 Y98.59
G1 X53.397 Y98.405
;WIPE_END
G1 X-54.743 Y97.725 F30000
G1 E1.5 F2100
G1 X-54.249 Y97.868 E.04935
G1 X-53.756 Y98.12 E.05318
G1 X-53.318 Y98.459 E.05317
G1 X-52.952 Y98.874 E.05317
G1 X-52.67 Y99.351 E.05317
G1 X-52.482 Y99.872 E.05317
G1 X-52.396 Y100.419 E.05317
G1 X-52.413 Y100.972 E.05317
G1 X-52.534 Y101.513 E.05317
G1 X-52.754 Y102.021 E.05317
G1 X-53.061 Y102.473 E.05253
G1 X-53.319 Y102.747 E.03611
G1 X-53.609 Y102.987 E.03611
G1 X-54.079 Y103.266 E.05253
G1 X-54.6 Y103.453 E.05317
G1 X-55.141 Y103.539 E.05253
G1 X-55.517 Y103.539 E.03611
G1 X-55.89 Y103.492 E.03611
G1 X-56.415 Y103.339 E.05253
G1 X-56.908 Y103.088 E.05317
G1 X-57.346 Y102.748 E.05317
G1 X-57.712 Y102.333 E.05317
G1 X-57.994 Y101.856 E.05317
G1 X-58.182 Y101.335 E.05317
G1 X-58.267 Y100.795 E.05253
G1 X-58.267 Y100.419 E.03609
G1 X-58.222 Y100.056 E.03515
G1 X-58.068 Y99.521 E.05345
G1 X-57.816 Y99.027 E.05322
G1 X-57.477 Y98.59 E.05317
G1 X-57.061 Y98.224 E.05317
G1 X-56.585 Y97.942 E.05317
G1 X-56.063 Y97.754 E.05322
G1 X-55.513 Y97.668 E.05345
G1 X-55.147 Y97.669 E.03516
G1 X-54.821 Y97.71 E.03158
G1 E-1.5
;WIPE_START
G1 X-54.249 Y97.868
G1 X-53.756 Y98.12
G1 X-53.318 Y98.459
G1 X-53.12 Y98.683
;WIPE_END
G1 X-50.395 Y-96.848 F30000
G1 E1.5 F2100
;TYPE:Inner wall
G1 X51.245 Y-96.848 E9.76011
G1 X51.245 Y96.848 E18.60014
G1 X-51.245 Y96.848 E9.84173
G1 X-51.245 Y-96.848 E18.60014
G1 X-50.475 Y-96.848 E.07394
M73 P0 R582
G1 X-50.395 Y-95.998 F30000
;TYPE:Outer wall
G1 F2100
G1 X50.395 Y-95.998 E9.67848
G1 X50.395 Y95.998 E18.4369
G1 X-50.395 Y95.998 E9.67848
G1 X-50.395 Y-95.918 E18.42921
G1 E-1.5
;WIPE_START
G1 X-48.395 Y-95.92
;WIPE_END
G1 X-52.112 Y-97.359 F30000
G1 E1.5 F2100
;TYPE:Inner wall
G1 X-52.03 Y-97.431 E.01044
G1 X-52.03 Y97.388 E18.70793
G1 X-52.875 Y96.732 E.1027
G1 X-53.644 Y96.341 E.08287
G1 X-54.442 Y96.109 E.07973
G1 X-55.043 Y96.033 E.05826
G1 X-55.639 Y96.032 E.0572
G1 X-56.47 Y96.162 E.08073
G1 X-57.284 Y96.455 E.08311
G1 X-58.027 Y96.894 E.08286
G1 X-58.674 Y97.465 E.08287
G1 X-59.203 Y98.147 E.08287
G1 X-59.329 Y98.395 E.0267
G1 X-59.691 Y98.308 E.03568
G1 X-59.691 Y-98.325 E18.8821
G1 X-59.344 Y-98.42 E.03454
G1 X-59.058 Y-97.937 E.05393
G1 X-58.671 Y-97.469 E.05826
G1 X-58.237 Y-97.061 E.05721
G1 X-57.543 Y-96.587 E.08073
G1 X-56.749 Y-96.243 E.08311
G1 X-55.907 Y-96.055 E.08287
G1 X-55.044 Y-96.028 E.08287
G1 X-54.192 Y-96.163 E.08287
G1 X-53.38 Y-96.455 E.08286
G1 X-52.635 Y-96.896 E.08311
G1 X-52.171 Y-97.306 E.05945
G1 E-1.5
;WIPE_START
G1 X-52.03 Y-97.431
G1 X-52.03 Y-95.62
;WIPE_END
G1 X-59.329 Y-102.813 F30000
G1 E1.5 F2100
G1 X-59.691 Y-102.899 E.03568
G1 X-59.691 Y-103.573 E.06471
G1 X-58.805 Y-103.573 E.08502
G1 X-59.203 Y-103.06 E.06233
G1 X-59.293 Y-102.884 E.01902
G1 E-1.5
;WIPE_START
G1 X-59.691 Y-102.899
G1 X-59.691 Y-103.573
G1 X-58.805 Y-103.573
G1 X-58.832 Y-103.539
;WIPE_END
G1 X51.596 Y-97.955 F30000
G1 E1.5 F2100
G1 X51.785 Y-97.634 E.03576
G1 X-51.803 Y-97.634 E9.94727
G1 X-51.301 Y-98.425 E.08993
G1 X-50.971 Y-99.187 E.07973
G1 X-50.783 Y-100.029 E.08287
G1 X-50.756 Y-100.892 E.08287
G1 X-50.891 Y-101.744 E.08287
G1 X-51.183 Y-102.556 E.08287
G1 X-51.785 Y-103.573 E.1135
G1 X51.859 Y-103.573 E9.95261
G1 X51.461 Y-103.06 E.06233
G1 X51.084 Y-102.32 E.07974
G1 X50.896 Y-101.743 E.05835
G1 X50.782 Y-101.146 E.05835
G1 X50.756 Y-100.316 E.07973
G1 X50.891 Y-99.463 E.08287
G1 X51.183 Y-98.651 E.08287
G1 X51.555 Y-98.023 E.07007
G1 E-1.5
;WIPE_START
G1 X51.785 Y-97.634
G1 X50.237 Y-97.634
;WIPE_END
G1 X59.344 Y-102.787 F30000
G1 E1.5 F2100
G1 X58.879 Y-103.573 E.0877
G1 X59.691 Y-103.573 E.07796
G1 X59.691 Y-102.882 E.06637
G1 X59.421 Y-102.808 E.02686
G1 E-1.5
;WIPE_START
G1 X58.879 Y-103.573
G1 X59.691 Y-103.573
G1 X59.691 Y-103.323
;WIPE_END
G1 X52.03 Y97.429 F30000
G1 E1.5 F2100
G1 X52.03 Y-97.434 E18.71217
G1 X52.427 Y-97.061 E.05228
G1 X53.121 Y-96.587 E.08073
G1 X53.915 Y-96.243 E.08311
