; HEADER_BLOCK_START
; generated by OrcaSlicer 2.3.1 on 2026-03-13 at 11:30:38
; total layer number: 154
; filament_density: 1.27
; filament_diameter: 1.75
; max_z_height: 30.75
; HEADER_BLOCK_END

; THUMBNAIL_BLOCK_START

;
; THUMBNAIL_BLOCK_END

; external perimeters extrusion width = 0.42mm
; perimeters extrusion width = 0.45mm
; infill extrusion width = 0.45mm
; solid infill extrusion width = 0.42mm
; top infill extrusion width = 0.42mm
; support material extrusion width = 0.42mm
; first layer extrusion width = 0.50mm

; EXECUTABLE_BLOCK_START
M73 P0 R46
M106 S0
M106 P2 S0
;TYPE:Custom
M190 S80
M104 S250
G90
M83
G1 Z5 F6000
G1 E-0.2 F800
G1 X110 Y-110 F6000
G1 E2 F800
G1 Y-110 X55 Z0.25 F4800
G1 X-55 E8 F2400
G1 Y-109.6 F2400
G1 X55 E5 F2400
G1 Y-110 X55 Z0.45 F4800
G1 X-55 E8 F2400
G1 Y-109.6 F2400
G1 X55 E5 F2400
G92 E0
G90
G21
M83 ; use relative distances for extrusion
; Filament gcode
M106 S0
M106 P2 S0
;LAYER_CHANGE
;Z:0.2
;HEIGHT:0.2
;BEFORE_LAYER_CHANGE
;0.2
G1 E-.8 F2100
;AFTER_LAYER_CHANGE
;0.2
;_SET_FAN_SPEED_CHANGING_LAYER
SET_VELOCITY_LIMIT ACCEL=500
G1 X8.981 Y22.147 F30000
G1 Z.6
G1 Z.2
G1 E.8 F2100
;TYPE:Support
;WIDTH:0.5
G1 F3000
G1 X8.692 Y22.134 E.01076
G1 X7.748 Y22.262 E.0355
G1 X6.841 Y22.556 E.0355
G1 X6.002 Y23.007 E.0355
G1 X5.256 Y23.6 E.03551
G1 X4.627 Y24.318 E.03551
G1 X4.137 Y25.136 E.03552
G1 X3.801 Y26.028 E.03553
G1 X3.629 Y26.967 E.03554
G1 X3.627 Y27.921 E.03555
G1 X3.796 Y28.861 E.03556
G1 X4.131 Y29.756 E.03557
G1 X4.62 Y30.576 E.03558
G1 X5.247 Y31.296 E.03559
G1 X5.994 Y31.893 E.03559
G1 X6.835 Y32.346 E.0356
G1 X7.246 Y32.48 E.01609
G1 X8.253 Y32.373 E.0377
G1 X9.125 Y32.344 E.03252
G1 X10.001 Y32.372 E.03261
G1 X10.741 Y32.445 E.02772
G1 X11.457 Y32.138 E.02899
G1 X12.254 Y31.611 E.03559
G1 X12.944 Y30.95 E.03559
G1 X13.504 Y30.177 E.03558
G1 X13.918 Y29.316 E.03557
G1 X14.17 Y28.395 E.03556
G1 X14.254 Y27.444 E.03556
G1 X14.167 Y26.494 E.03555
G1 X13.912 Y25.574 E.03554
G1 X13.497 Y24.716 E.03553
G1 X12.936 Y23.945 E.03552
G1 X12.246 Y23.287 E.03551
G1 X11.45 Y22.762 E.0355
G1 X10.573 Y22.388 E.0355
G1 X9.644 Y22.177 E.0355
G1 X9.049 Y22.15 E.02218
G1 X4.051 Y28.954 F30000
G1 F3000
G1 X4.051 Y26.947 E.07475
G1 X4.199 Y26.139 E.0306
G1 X4.509 Y25.315 E.03278
G1 X4.559 Y25.233 E.00359
G1 X4.559 Y29.67 E.16527
G1 X4.954 Y30.334 E.02879
G1 X5.066 Y30.463 E.00637
G1 X5.066 Y24.441 E.2243
G1 X5.574 Y23.872 E.02839
G1 X5.574 Y31.031 E.26663
G1 X6.082 Y31.437 E.02421
G1 X6.082 Y23.468 E.2968
G1 X6.229 Y23.351 E.00698
G1 X6.59 Y23.157 E.01527
G1 X6.59 Y31.747 E.31992
G1 X6.998 Y31.967 E.01726
G1 X7.098 Y31.999 E.00392
G1 X7.098 Y22.905 E.33873
G1 X7.606 Y22.74 E.01989
G1 X7.606 Y32.018 E.34557
G1 X8.114 Y31.971 E.019
G1 X8.114 Y22.627 E.34801
G1 X8.621 Y22.558 E.01909
G1 X8.621 Y31.943 E.34955
G1 X9.129 Y31.933 E.01892
G1 X9.129 Y22.565 E.3489
G1 X9.637 Y22.597 E.01895
G1 X9.637 Y31.942 E.34807
G1 X10.145 Y31.971 E.01895
G1 X10.145 Y22.713 E.34483
G1 X10.446 Y22.781 E.01149
G1 X10.653 Y22.869 E.00839
G1 X10.653 Y32.02 E.34084
G1 X10.68 Y32.023 E.00103
G1 X11.161 Y31.818 E.01946
G1 X11.161 Y23.086 E.32521
G1 X11.254 Y23.126 E.00379
G1 X11.669 Y23.399 E.01848
G1 X11.669 Y31.505 E.30192
G1 X11.996 Y31.289 E.01462
G1 X12.177 Y31.116 E.00931
G1 X12.177 Y23.789 E.27289
G1 X12.625 Y24.217 E.02308
G1 X12.684 Y24.299 E.00376
G1 X12.684 Y30.607 E.23497
G1 X13.149 Y29.965 E.02952
G1 X13.192 Y29.876 E.00368
G1 X13.192 Y25.03 E.1805
G1 X13.526 Y25.72 E.02854
G1 X13.7 Y26.348 E.02429
G1 X13.7 Y29.293 E.10969
G1 E-.8 F2100
;WIPE_START
G1 F3000
G1 X13.7 Y27.293
;WIPE_END
G1 X11.492 Y34.6 Z.6 F30000
G1 X8.986 Y42.894 Z.6
G1 Z.2
G1 E.8 F2100
G1 F3000
G1 X9.454 Y42.963 E.01764
G1 X9.721 Y43.043 E.01038
G1 X9.944 Y43.138 E.00901
G1 X10.19 Y43.274 E.01048
G1 X10.396 Y43.419 E.00938
G1 X10.563 Y43.563 E.00821
G1 X10.739 Y43.751 E.00959
G1 X10.996 Y44.122 E.01682
G1 X11.17 Y44.523 E.01628
G1 X11.255 Y44.896 E.01424
G1 X11.3 Y45.344 E.01678
G1 X11.299 Y45.62 E.01026
G1 X11.239 Y46 E.01435
G1 X11.183 Y46.189 E.00734
G1 X11.072 Y46.451 E.01058
G1 X10.84 Y46.816 E.0161
G1 X10.541 Y47.127 E.01607
G1 X10.183 Y47.376 E.01626
G1 X9.785 Y47.547 E.01614
G1 X9.179 Y47.68 E.0231
G1 X8.81 Y47.704 E.01376
G1 X8.347 Y47.647 E.01738
G1 X8.14 Y47.59 E.00799
G1 X7.876 Y47.484 E.0106
G1 X7.635 Y47.353 E.01023
G1 X7.446 Y47.222 E.00855
G1 X7.13 Y46.934 E.01591
G1 X6.974 Y46.747 E.00907
G1 X6.808 Y46.495 E.01125
G1 X6.615 Y46.079 E.01708
G1 X6.505 Y45.669 E.01583
G1 X6.474 Y45.441 E.00858
G1 X6.463 Y45.156 E.01062
G1 X6.495 Y44.79 E.01368
G1 X6.53 Y44.62 E.00646
G1 X6.686 Y44.203 E.01661
G1 X6.827 Y43.956 E.01057
G1 X6.952 Y43.781 E.00801
G1 X7.239 Y43.474 E.01568
G1 X7.57 Y43.228 E.01534
G1 X7.966 Y43.046 E.01625
G1 X8.412 Y42.928 E.01717
G1 X8.707 Y42.895 E.01106
G1 X8.917 Y42.893 E.00782
G1 X7.098 Y46.564 F30000
G1 F3000
G1 X7.098 Y44.306 E.08411
G1 X7.225 Y44.103 E.00891
G1 X7.364 Y43.929 E.00829
G1 X7.606 Y43.706 E.01226
G1 X7.606 Y46.821 E.11604
G1 X7.851 Y47.003 E.01138
G1 X8.114 Y47.139 E.01101
G1 X8.114 Y43.43 E.13815
G1 X8.346 Y43.362 E.00901
G1 X8.621 Y43.316 E.01041
G1 X8.621 Y47.277 E.14755
G1 X8.818 Y47.292 E.00733
G1 X9.129 Y47.271 E.01163
G1 X9.129 Y43.321 E.14713
G1 X9.358 Y43.363 E.00864
G1 X9.637 Y43.455 E.01097
G1 X9.637 Y47.161 E.13804
G1 X9.879 Y47.069 E.00962
G1 X10.145 Y46.914 E.01149
G1 X10.145 Y43.746 E.11799
G1 X10.427 Y44.018 E.01459
G1 X10.653 Y44.355 E.01509
G1 X10.653 Y46.719 E.08805
G1 E-.8 F2100
;WIPE_START
G1 F3000
G1 X10.653 Y44.719
;WIPE_END
G1 X8.988 Y52.167 Z.6 F30000
G1 X7.571 Y58.509 Z.6
G1 Z.2
G1 E.8 F2100
G1 F3000
G1 X8.259 Y58.574 E.02576
G1 X9.133 Y58.603 E.03254
G1 X10 Y58.574 E.03233
G1 X10.827 Y58.492 E.03095
G1 X11.56 Y58.806 E.02968
G1 X12.357 Y59.333 E.0356
G1 X13.047 Y59.994 E.03559
G1 X13.608 Y60.767 E.03558
G1 X14.021 Y61.628 E.03558
G1 X14.274 Y62.549 E.03557
G1 X14.358 Y63.5 E.03556
G1 X14.271 Y64.451 E.03555
G1 X14.015 Y65.37 E.03554
G1 X13.6 Y66.229 E.03553
G1 X13.039 Y67 E.03552
G1 X12.349 Y67.658 E.03551
G1 X11.553 Y68.182 E.0355
G1 X10.676 Y68.556 E.0355
G1 X9.747 Y68.768 E.03549
G1 X8.795 Y68.81 E.03549
G1 X7.851 Y68.683 E.03549
G1 X6.944 Y68.388 E.0355
G1 X6.105 Y67.937 E.0355
G1 X5.359 Y67.344 E.0355
G1 X4.731 Y66.627 E.03551
G1 X4.24 Y65.809 E.03552
G1 X3.904 Y64.916 E.03553
G1 X3.732 Y63.977 E.03554
G1 X3.731 Y63.023 E.03555
G1 X3.9 Y62.083 E.03556
G1 X4.234 Y61.189 E.03557
G1 X4.723 Y60.368 E.03558
G1 X5.351 Y59.648 E.03559
G1 X6.097 Y59.051 E.03559
G1 X6.938 Y58.598 E.0356
G1 X7.315 Y58.475 E.01477
G1 X7.503 Y58.5 E.00704
G1 X4.559 Y61.046 F30000
G1 F3000
G1 X4.559 Y65.486 E.16539
G1 X4.612 Y65.629 E.00568
G1 X5.066 Y66.386 E.03287
G1 X5.066 Y60.6 E.21549
G1 X5.574 Y60.017 E.02879
G1 X5.574 Y66.965 E.25879
G1 X5.644 Y67.045 E.00394
G1 X6.082 Y67.394 E.02086
G1 X6.082 Y59.59 E.29066
G1 X6.325 Y59.396 E.01157
G1 X6.59 Y59.253 E.01122
G1 X6.59 Y67.731 E.31578
G1 X7.098 Y68.004 E.02147
G1 X7.101 Y58.978 E.3362
G1 X7.354 Y58.895 E.00991
G1 X7.606 Y58.926 E.00945
G1 X7.606 Y68.171 E.34432
G1 X7.943 Y68.28 E.01319
G1 X8.114 Y68.303 E.00643
G1 X8.114 Y58.976 E.3474
G1 X8.621 Y59.003 E.01894
G1 X8.621 Y68.372 E.34893
G1 X8.814 Y68.398 E.00722
G1 X9.129 Y68.384 E.01177
G1 X9.129 Y59.014 E.34898
G1 X9.637 Y59.003 E.01892
G1 X9.637 Y68.361 E.34853
G1 X10.145 Y68.255 E.01932
M73 P1 R46
G1 X10.145 Y58.975 E.34564
G1 X10.653 Y58.926 E.01901
G1 X10.653 Y68.119 E.34241
G1 X11.161 Y67.902 E.02057
G1 X11.161 Y59.082 E.3285
G1 X11.364 Y59.169 E.00823
G1 X11.669 Y59.371 E.01361
G1 X11.669 Y67.613 E.307
G1 X12.092 Y67.334 E.01887
G1 X12.177 Y67.254 E.00437
G1 X12.177 Y59.729 E.28024
G1 X12.684 Y60.216 E.0262
G1 X12.684 Y66.769 E.24408
G1 X13.192 Y66.09 E.03158
G1 X13.192 Y60.895 E.1935
G1 X13.253 Y60.979 E.00384
G1 X13.634 Y61.773 E.03282
G1 X13.7 Y62.014 E.00931
G1 X13.7 Y65.55 E.13169
G1 E-.8 F2100
;WIPE_START
G1 F3000
G1 X13.7 Y63.55
;WIPE_END
G1 X13.429 Y55.922 Z.6 F30000
G1 X13.126 Y47.401 Z.6
G1 Z.2
G1 E.8 F2100
;TYPE:Inner wall
G1 F3000
G1 X12.949 Y47.74 E.01423
G1 X12.63 Y48.207 E.02107
G1 X12.321 Y48.56 E.01748
G1 X12.007 Y48.856 E.01606
G1 X11.617 Y49.152 E.01825
G1 X11.272 Y49.363 E.01507
G1 X10.782 Y49.597 E.02021
G1 X10.211 Y49.781 E.02237
G1 X9.52 Y49.921 E.02623
G1 X9.124 Y49.964 E.01487
G1 X8.409 Y49.952 E.02662
G1 X7.848 Y49.858 E.02117
G1 X7.401 Y49.734 E.0173
G1 X6.69 Y49.426 E.02887
G1 X6.253 Y49.157 E.0191
G1 X5.808 Y48.809 E.02103
G1 X5.461 Y48.468 E.01812
G1 X5.136 Y48.077 E.01896
G1 X4.728 Y47.417 E.0289
G1 X4.534 Y46.982 E.01771
G1 X4.388 Y46.553 E.01688
G1 X4.276 Y46.079 E.01816
G1 X4.212 Y45.611 E.01759
G1 X4.207 Y44.848 E.02842
G1 X4.262 Y44.392 E.01711
G1 X4.413 Y43.787 E.02322
G1 X4.557 Y43.41 E.01502
G1 X4.792 Y42.941 E.01956
G1 X5.05 Y42.54 E.01775
G1 X5.367 Y42.145 E.01887
G1 X5.726 Y41.787 E.01888
G1 X6.054 Y41.519 E.01578
G1 X6.419 Y41.275 E.01635
G1 X6.866 Y41.046 E.01869
G1 X7.217 Y40.907 E.01406
G1 X7.726 Y40.756 E.01979
G1 X8.217 Y40.666 E.0186
G1 X8.591 Y40.632 E.01398
G1 X9.106 Y40.63 E.01917
G1 X9.707 Y40.698 E.02253
G1 X10.477 Y40.905 E.0297
G1 X10.924 Y41.094 E.01807
G1 X11.396 Y41.354 E.02007
G1 X11.802 Y41.642 E.01856
G1 X12.123 Y41.919 E.01579
G1 X12.466 Y42.282 E.01861
G1 X12.761 Y42.671 E.01816
G1 X12.985 Y43.038 E.01601
G1 X13.219 Y43.523 E.02008
G1 X13.455 Y44.296 E.03009
G1 X13.567 Y45.241 E.03545
G1 X13.538 Y46.036 E.02962
G1 X13.438 Y46.551 E.01954
G1 X13.323 Y46.936 E.01496
G1 X13.162 Y47.332 E.01595
G1 X13.144 Y47.366 E.0014
G1 X12.72 Y47.19 F30000
G1 F3000
G1 X12.557 Y47.505 E.01321
G1 X12.268 Y47.927 E.01903
G1 X11.992 Y48.243 E.01564
G1 X11.712 Y48.506 E.01432
G1 X11.359 Y48.774 E.0165
G1 X11.054 Y48.961 E.01333
G1 X10.613 Y49.171 E.01818
G1 X10.095 Y49.338 E.02028
G1 X9.45 Y49.469 E.0245
G1 X9.103 Y49.506 E.01302
G1 X8.451 Y49.495 E.02429
G1 X7.947 Y49.412 E.01901
G1 X7.554 Y49.302 E.01521
G1 X6.902 Y49.02 E.02648
G1 X6.515 Y48.781 E.01693
G1 X6.11 Y48.465 E.01911
G1 X5.798 Y48.158 E.0163
G1 X5.508 Y47.809 E.01691
G1 X5.133 Y47.202 E.02657
G1 X4.96 Y46.815 E.01579
G1 X4.828 Y46.427 E.01527
G1 X4.726 Y45.995 E.01652
G1 X4.669 Y45.578 E.01567
G1 X4.664 Y44.874 E.02624
G1 X4.712 Y44.475 E.01497
G1 X4.85 Y43.924 E.02113
G1 X4.976 Y43.594 E.01315
G1 X5.189 Y43.167 E.01778
G1 X5.421 Y42.808 E.01595
G1 X5.708 Y42.45 E.01705
G1 X6.032 Y42.126 E.01709
G1 X6.326 Y41.887 E.01412
G1 X6.651 Y41.67 E.01455
G1 X7.054 Y41.463 E.01689
G1 X7.366 Y41.339 E.01249
G1 X7.832 Y41.201 E.0181
G1 X8.279 Y41.12 E.01692
G1 X8.613 Y41.089 E.01247
G1 X9.081 Y41.088 E.01744
G1 X9.622 Y41.148 E.02027
G1 X10.328 Y41.338 E.02724
G1 X10.724 Y41.506 E.01602
G1 X11.153 Y41.741 E.01822
G1 X11.52 Y42.002 E.01677
G1 X11.807 Y42.25 E.01411
G1 X12.117 Y42.579 E.01684
G1 X12.383 Y42.929 E.01639
G1 X12.584 Y43.257 E.01431
G1 X12.792 Y43.69 E.01792
G1 X13.006 Y44.39 E.02727
G1 X13.109 Y45.26 E.03261
G1 X13.082 Y45.983 E.02697
G1 X12.993 Y46.441 E.01738
G1 X12.891 Y46.784 E.01331
G1 X12.746 Y47.14 E.01433
G1 X12.739 Y47.155 E.00061
G1 X12.315 Y46.979 F30000
G1 F3000
G1 X12.164 Y47.27 E.01219
G1 X11.906 Y47.646 E.01699
G1 X11.663 Y47.925 E.01379
G1 X11.416 Y48.157 E.01259
G1 X11.101 Y48.396 E.01476
G1 X10.835 Y48.559 E.01159
G1 X10.444 Y48.746 E.01615
G1 X9.979 Y48.895 E.01819
G1 X9.38 Y49.017 E.02276
G1 X9.082 Y49.049 E.01117
G1 X8.492 Y49.039 E.02197
G1 X8.046 Y48.965 E.01684
G1 X7.707 Y48.87 E.01313
G1 X7.113 Y48.613 E.02408
G1 X6.776 Y48.405 E.01476
G1 X6.412 Y48.121 E.0172
G1 X6.135 Y47.848 E.01448
G1 X5.88 Y47.541 E.01487
G1 X5.538 Y46.988 E.02423
G1 X5.386 Y46.648 E.01388
G1 X5.268 Y46.301 E.01367
G1 X5.176 Y45.912 E.01487
G1 X5.126 Y45.546 E.01376
G1 X5.122 Y44.9 E.02407
G1 X5.163 Y44.558 E.01283
G1 X5.287 Y44.061 E.01904
G1 X5.395 Y43.779 E.01128
G1 X5.587 Y43.394 E.01601
G1 X5.793 Y43.075 E.01414
G1 X6.048 Y42.756 E.01523
G1 X6.339 Y42.466 E.01529
G1 X6.598 Y42.255 E.01246
G1 X6.883 Y42.064 E.01274
G1 X7.243 Y41.88 E.01509
G1 X7.516 Y41.772 E.01093
G1 X7.939 Y41.647 E.01642
G1 X8.341 Y41.573 E.01525
G1 X8.634 Y41.546 E.01096
G1 X9.056 Y41.545 E.01571
G1 X9.536 Y41.599 E.018
G1 X10.179 Y41.771 E.02478
G1 X10.524 Y41.918 E.01397
G1 X10.91 Y42.129 E.01637
G1 X11.238 Y42.362 E.01498
G1 X11.49 Y42.581 E.01244
G1 X11.768 Y42.875 E.01506
G1 X12.005 Y43.187 E.01462
G1 X12.182 Y43.476 E.0126
G1 X12.365 Y43.857 E.01576
G1 X12.557 Y44.485 E.02445
G1 X12.651 Y45.278 E.02977
G1 X12.627 Y45.931 E.02433
G1 X12.549 Y46.332 E.01523
G1 X12.459 Y46.632 E.01165
G1 X12.333 Y46.944 E.01253
G1 X11.871 Y46.749 F30000
;TYPE:Outer wall
G1 F3000
G1 X11.734 Y47.012 E.01107
G1 X11.51 Y47.34 E.01477
G1 X11.302 Y47.578 E.01178
G1 X11.093 Y47.775 E.0107
G1 X10.818 Y47.983 E.01285
G1 X10.596 Y48.119 E.00969
G1 X10.259 Y48.28 E.01393
G1 X9.853 Y48.411 E.0159
G1 X9.304 Y48.522 E.02086
G1 X9.059 Y48.548 E.00915
G1 X8.538 Y48.539 E.01942
G1 X8.154 Y48.476 E.01448
G1 X7.874 Y48.398 E.01085
G1 X7.345 Y48.169 E.02146
G1 X7.062 Y47.994 E.01238
G1 X6.743 Y47.744 E.01511
G1 X6.503 Y47.51 E.01249
G1 X6.287 Y47.249 E.01263
G1 X5.981 Y46.754 E.02168
G1 X5.852 Y46.465 E.01178
G1 X5.749 Y46.162 E.01191
G1 X5.668 Y45.821 E.01308
G1 X5.626 Y45.51 E.01167
G1 X5.622 Y44.928 E.02168
G1 X5.656 Y44.648 E.01049
G1 X5.764 Y44.212 E.01676
G1 X5.853 Y43.98 E.00923
G1 X6.022 Y43.642 E.01407
G1 X6.199 Y43.368 E.01217
G1 X6.421 Y43.09 E.01324
G1 X6.674 Y42.838 E.01333
G1 X6.896 Y42.657 E.01064
G1 X7.136 Y42.496 E.01077
G1 X7.45 Y42.336 E.01312
G1 X7.68 Y42.245 E.00921
G1 X8.055 Y42.134 E.01458
G1 X8.409 Y42.069 E.01341
G1 X8.658 Y42.046 E.00931
G1 X9.029 Y42.045 E.01382
G1 X9.443 Y42.091 E.01552
G1 X10.016 Y42.245 E.02209
G1 X10.306 Y42.368 E.01173
G1 X10.644 Y42.554 E.01436
G1 X10.929 Y42.756 E.01302
G1 X11.144 Y42.942 E.0106
G1 X11.386 Y43.198 E.01312
G1 X11.592 Y43.469 E.01268
G1 X11.742 Y43.715 E.01073
G1 X11.898 Y44.039 E.01339
G1 X12.065 Y44.588 E.02137
G1 X12.15 Y45.299 E.02666
G1 X12.128 Y45.874 E.02143
G1 X12.063 Y46.213 E.01287
G1 X11.987 Y46.466 E.00984
G1 X11.887 Y46.712 E.00989
G1 E-.8 F2100
;WIPE_START
G1 F3000
G1 X11.734 Y47.012
G1 X11.51 Y47.34
G1 X11.302 Y47.578
G1 X11.093 Y47.775
G1 X10.818 Y47.983
G1 X10.596 Y48.119
G1 X10.544 Y48.144
;WIPE_END
G1 X9.726 Y40.555 Z.6 F30000
G1 X9.087 Y34.62 Z.6
G1 Z.2
G1 E.8 F2100
;TYPE:Inner wall
G1 F3000
G1 X9.852 Y34.632 E.02852
G1 X10.415 Y34.686 E.02107
G1 X11.026 Y34.775 E.02298
G1 X11.992 Y34.993 E.03687
G1 X12.463 Y35.133 E.01831
G1 X13.028 Y35.332 E.02232
G1 X13.535 Y35.543 E.02047
G1 X14.108 Y35.816 E.02364
G1 X14.526 Y36.042 E.01768
G1 X15.29 Y36.523 E.03364
G1 X15.621 Y36.759 E.01514
G1 X16.254 Y37.27 E.0303
G1 X16.656 Y37.637 E.02028
G1 X17.035 Y38.019 E.02005
G1 X17.342 Y38.359 E.01704
G1 X17.971 Y39.158 E.0379
G1 X18.329 Y39.692 E.02395
G1 X18.585 Y40.12 E.01855
G1 X18.872 Y40.663 E.02287
G1 X19.249 Y41.518 E.03481
G1 X19.468 Y42.132 E.02427
G1 X19.593 Y42.543 E.016
G1 X19.737 Y43.124 E.0223
G1 X19.828 Y43.575 E.01715
G1 X19.914 Y44.156 E.02187
G1 X19.99 Y45.153 E.03724
G1 X19.97 Y46.188 E.03856
G1 X19.914 Y46.791 E.02254
G1 X19.828 Y47.371 E.02187
G1 X19.593 Y48.404 E.03944
G1 X19.468 Y48.815 E.016
G1 X19.245 Y49.441 E.02474
G1 X18.881 Y50.266 E.03361
G1 X18.585 Y50.827 E.0236
G1 X18.329 Y51.254 E.01855
G1 X17.972 Y51.787 E.0239
G1 X17.705 Y52.147 E.01668
G1 X17.035 Y52.928 E.03831
G1 X16.666 Y53.299 E.01952
G1 X15.953 Y53.928 E.03541
G1 X15.264 Y54.442 E.03204
G1 X14.921 Y54.667 E.01526
G1 X14.085 Y55.143 E.03585
G1 X13.736 Y55.314 E.01446
G1 X13.022 Y55.616 E.02888
G1 X12.463 Y55.813 E.0221
G1 X11.994 Y55.953 E.01823
G1 X11.445 Y56.088 E.02105
G1 X10.562 Y56.243 E.03337
G1 X9.848 Y56.315 E.02674
G1 X9.362 Y56.334 E.01812
G1 X8.776 Y56.332 E.02181
G1 X8.242 Y56.302 E.01993
G1 X7.171 Y56.161 E.04025
G1 X6.442 Y56.001 E.02781
G1 X5.959 Y55.866 E.01867
G1 X5.437 Y55.691 E.02052
G1 X4.553 Y55.328 E.03559
G1 X3.705 Y54.889 E.03555
G1 X3.357 Y54.68 E.01511
G1 X2.658 Y54.202 E.03155
G1 X1.907 Y53.59 E.03609
G1 X1.213 Y52.917 E.036
G1 X.917 Y52.588 E.0165
G1 X.287 Y51.788 E.0379
G1 X-.071 Y51.254 E.02395
G1 X-.326 Y50.827 E.01855
G1 X-.613 Y50.284 E.02287
G1 X-.991 Y49.428 E.03482
G1 X-1.209 Y48.815 E.02426
G1 X-1.334 Y48.404 E.016
